* DEMONSTRATION CODE GENERATOR
* This NC code was generated using a demonstration code generator 
* and is for demonstration purpose only. The Code Generator has
* not been configured for a specific machine tool and therefore
* should not be used on a machine tool. 
*
**********************************************************************
* Machine Tool   : ISO 5 Axis Mill
* Part Name      : 5 Axis Simultaneous Milling Aileron bracket
* Sequence       : SWARF
*
* Total Machining Time (including Toolchange) : .579       Minutes
**********************************************************************
*
%
O0001
 G21 G90 G40
 G10 P1 Z128.0 R6.0 T01
 G10 P2 Z96.0 R2.5 T02
 G10 P3 Z96.0 R2.5 T02
 G10 P4 Z120.0 R3.0 T04
 G10 L2 P1 X185.0 Y-50.0 Z-5.0 (Top)
 G28 G91 Z0 H0
 G28 X0 Y0
 G21 G90 G40
 T01 M06 (12mm Dia MULTI-FLUTE END MILL)
 G54
 T02 M1
 S1200 M3 M41
 G0 X-60.0 Y40.0 A0.0 C0.0
 G43 Z75.0 H01 M9
 X-25.915 Y67.286
 Z21.0
 G17 G94 G3 X-15.152 Z20.319 I5.382 J0.0 K1.362 F1500.0
 X-25.869 Z19.641 I-5.358 J0.0 K1.356
 X-15.198 Z18.966 I5.336 J0.0 K1.35
 X-25.823 Z18.294 I-5.312 J0.0 K1.344
 X-15.243 Z17.624 I5.29 J0.0 K1.339
 X-25.777 Z16.958 I-5.267 J0.0 K1.333
 X-15.289 Z16.294 I5.244 J0.0 K1.327
 X-25.732 Z15.634 I-5.222 J0.0 K1.321
 X-15.334 Z14.976 I5.199 J0.0 K1.316
 X-25.687 Z14.321 I-5.177 J0.0 K1.31
 X-15.378 Z13.669 I5.154 J0.0 K1.304
 X-25.643 Z13.019 I-5.133 J0.0 K1.299
 X-15.423 Z12.373 I5.11 J0.0 K1.293
 X-25.599 Z11.729 I-5.088 J0.0 K1.288
 X-15.467 Z11.088 I5.066 J0.0 K1.282
 X-25.555 Z10.449 I-5.044 J0.0 K1.277
 X-15.51 Z9.814 I5.022 J0.0 K1.271
 X-25.512 Z9.181 I-5.001 J0.0 K1.266
 X-15.553 Z8.551 I4.979 J0.0 K1.26
 X-25.469 Z7.924 I-4.958 J0.0 K1.255
 X-15.596 Z7.299 I4.937 J0.0 K1.249
 X-25.427 Z6.677 I-4.915 J0.0 K1.244
 X-15.638 Z6.058 I4.895 J0.0 K1.239
 X-25.384 Z5.441 I-4.873 J0.0 K1.233
 X-15.68 Z4.827 I4.852 J0.0 K1.228
 X-25.343 Z4.216 I-4.831 J0.0 K1.223
 X-15.722 Z3.607 I4.811 J0.0 K1.217
 X-25.322 Z3.0 I-4.8 J0.0 K1.215
 I4.8 J0.0
 G1 X-25.319 Y67.233
 G3 X-21.536 Y61.744 R4.494
 X-14.927 Y66.214 R5.667
 X-19.336 Y72.863 R5.667
 X-26.75 Y66.334 R6.474
 X-23.932 Y61.435 R5.889
 X-22.734 Y61.036 R3.0
 G1 X-20.197 Y60.757
 G3 X-13.625 Y68.288 R6.466
 X-14.308 Y69.804 R3.0
 G1 X-15.028 Y70.653
 X-16.101 Y71.991
 X-17.446 Y73.253
 G3 X-19.193 Y73.752 R3.0
 G1 X-21.829 Y73.674
 G3 X-26.929 Y62.667 R7.218
 X-24.699 Y61.252 R3.0
 G1 X-22.372 Y60.996
 X-20.197 Y60.757
 X-18.229 Y60.54
 G3 X-13.499 Y63.137 R5.331
 X-12.998 Y64.798 R3.0
 X-13.048 Y68.621 R12.076
 G1 X-13.536 Y69.134
 X-13.853 Y69.287
 X-16.101 Y71.991
 X-17.521 Y73.681
 X-17.76 Y73.764
 X-18.012 Y73.787
 X-19.193 Y73.752
 X-21.829 Y73.674
 X-23.819 Y73.615
 G3 X-28.991 Y69.04 R6.472
 X-28.77 Y63.25 R7.858
 X-26.333 Y61.432 R3.0
 G1 X-24.699 Y61.252
 X-18.229 Y60.54
 X-16.567 Y60.357
 X-14.953 Y60.614
 G3 X-12.997 Y63.426 R3.0
 G1 X-12.998 Y64.798
 G3 X-15.612 Y65.58 R1.424
 G1 X-17.601 Y62.555
 G3 X-16.567 Y60.357 R1.424
 G1 X-15.196 Y60.206
 G3 X-13.642 Y60.604 R2.458
 X-12.94 Y61.915 R1.465
 G1 X-12.996 Y63.288
 G3 X-14.773 Y63.704 R0.947
 G1 X-15.923 Y61.601
 G3 X-15.196 Y60.206 R0.947
 G1 X-14.214 Y60.098
 X-13.428 Y60.229
 G3 X-12.94 Y61.915 R1.482
 X-13.985 Y62.152 R0.555
 G1 X-14.522 Y61.138
 X-14.644 Y60.909
 G3 X-14.214 Y60.098 R0.555
 G1 X-13.428 Y60.229
 G3 X-12.911 Y61.19 R1.026
 G1 X-12.915 Y68.283
 X-13.536 Y69.134
 X-13.853 Y69.287
 X-16.101 Y71.991
 X-17.521 Y73.681
 X-17.76 Y73.764
 X-18.012 Y73.787
 X-23.826 Y73.615
 X-25.632 Y73.561
 G3 X-30.275 Y69.261 R6.197
 X-30.295 Y63.408 R7.918
 X-27.863 Y61.601 R3.0
 G1 X-26.333 Y61.432
 G3 X-23.013 Y64.193 R3.0
 G1 X-22.897 Y65.759 Z3.1
 X-22.674 Y68.774 F9999.9
 X-22.558 Y70.341 Z3.0 F1500.0
 G3 X-25.639 Y73.561 R3.0
 G1 X-27.127 Y73.517
 G3 X-32.026 Y68.096 R6.512
 X-31.836 Y63.731 R7.467
 X-29.341 Y61.763 R3.0
 G1 X-27.863 Y61.601
 G3 X-24.562 Y64.319 R2.985
 G1 X-24.431 Y65.885 Z3.1
 X-24.195 Y68.72 F9999.9
 X-24.065 Y70.285 Z3.0 F1500.0
 G3 X-27.127 Y73.517 R2.985
 G1 X-28.6 Y73.473
 G3 X-33.332 Y68.448 R6.429
 X-33.286 Y63.891 R7.437
 X-30.791 Y61.923 R3.0
 G1 X-29.341 Y61.763
 G3 X-26.097 Y64.426 R2.933
 G1 X-25.962 Y65.991 Z3.1
 X-25.726 Y68.724 F9999.9
 X-25.591 Y70.289 Z3.0 F1500.0
 G3 X-28.6 Y73.473 R2.933
 G1 X-30.091 Y73.429
 G3 X-34.617 Y68.858 R6.183
 X-34.723 Y64.131 R7.629
 X-32.199 Y62.078 R3.0
 G1 X-30.791 Y61.923
 G3 X-27.603 Y64.553 R2.882
 G1 X-27.475 Y66.119 Z3.1
 X-27.261 Y68.748 F9999.9
 X-27.133 Y70.314 Z3.0 F1500.0
 G3 X-30.091 Y73.429 R2.882
 G1 X-31.317 Y73.393
 G3 X-36.074 Y68.635 R6.071
 X-36.158 Y64.392 R7.078
 X-33.601 Y62.233 R3.0
 G1 X-32.199 Y62.078
 G3 X-29.071 Y64.572 R2.837
 G1 X-28.89 Y66.132 Z3.1
 X-28.596 Y68.67 F9999.9
 X-28.415 Y70.23 Z3.0 F1500.0
 G3 X-31.317 Y73.393 R2.837
 G1 X-32.815 Y73.348
 G3 X-37.222 Y69.321 R5.708
 X-37.51 Y64.426 R7.098
 X-34.99 Y62.385 R3.0
 G1 X-33.601 Y62.233
 G3 X-30.525 Y64.721 R2.786
 G1 X-30.366 Y66.284 Z3.1
 X-30.12 Y68.72 F9999.9
 X-29.961 Y70.283 Z3.0 F1500.0
 G3 X-32.815 Y73.348 R2.786
 G1 X-34.295 Y73.304
 G3 X-38.846 Y68.644 R6.187
 X-38.919 Y64.687 R6.787
 X-36.365 Y62.537 R3.0
 G1 X-34.99 Y62.385
 G3 X-31.965 Y64.867 R2.735
 G1 X-31.829 Y66.432 Z3.1
 X-31.626 Y68.768 F9999.9
 X-31.489 Y70.333 Z3.0 F1500.0
 G3 X-34.295 Y73.304 R2.735
 G1 X-35.669 Y73.264
 G3 X-40.223 Y68.644 R6.146
 X-40.248 Y64.746 R6.574
 X-37.722 Y62.686 R3.0
 G1 X-36.365 Y62.537
 G3 X-33.395 Y64.968 R2.687
 G1 X-33.254 Y66.533 Z3.1
 X-33.053 Y68.773 F9999.9
 X-32.913 Y70.338 Z3.0 F1500.0
 G3 X-35.669 Y73.264 R2.687
 G1 X-37.031 Y73.223
 G3 X-41.704 Y68.165 R6.199
 X-41.625 Y65.023 R6.226
 X-39.06 Y62.834 R3.0
 G1 X-37.722 Y62.686
 G3 X-34.804 Y65.071 R2.64
 G1 X-34.661 Y66.635 Z3.1
 X-34.466 Y68.781 F9999.9
 X-34.324 Y70.345 Z3.0 F1500.0
 G3 X-37.031 Y73.223 R2.64
 G1 X-38.378 Y73.183
 G3 X-43.039 Y68.225 R5.941
 X-42.957 Y65.116 R6.376
 X-40.407 Y62.982 R3.0
 G1 X-39.06 Y62.834
 G3 X-36.194 Y65.174 R2.593
 G1 X-36.051 Y66.738 Z3.1
 X-35.862 Y68.79 F9999.9
 X-35.719 Y70.354 Z3.0 F1500.0
 G3 X-38.378 Y73.183 R2.593
 G1 X-39.873 Y73.139
 G3 X-44.436 Y67.909 R5.981
 X-44.293 Y65.331 R5.968
 X-41.723 Y63.127 R3.0
 G1 X-40.407 Y62.982
 G3 X-37.591 Y65.344 R2.543
 G1 X-37.489 Y66.912 Z3.1
 X-37.362 Y68.865 F9999.9
 X-37.26 Y70.432 Z3.0 F1500.0
 G3 X-39.873 Y73.139 R2.543
 G1 X-41.273 Y73.098
 G3 X-45.771 Y67.759 R5.875
 X-45.604 Y65.466 R5.965
 X-43.038 Y63.272 R3.0
 G1 X-41.723 Y63.127
 G3 X-38.958 Y65.484 R2.495
 G1 X-38.881 Y67.053 Z3.1
 X-38.789 Y68.911 F9999.9
 X-38.711 Y70.48 Z3.0 F1500.0
 G3 X-41.277 Y73.098 R2.495
 G1 X-42.661 Y73.057
 G3 X-47.084 Y67.589 R5.791
 G1 X-46.906 Y65.598
 G3 X-44.343 Y63.415 R3.0
 G1 X-43.038 Y63.272
 G3 X-40.323 Y65.616 R2.448
 G1 X-40.266 Y67.186 Z3.1
 X-40.202 Y68.951 F9999.9
 X-40.145 Y70.521 Z3.0 F1500.0
 G3 X-42.664 Y73.056 R2.448
 G1 X-43.898 Y73.02
 G3 X-48.353 Y67.749 R5.586
 G1 X-48.201 Y65.773
 G3 X-45.629 Y63.557 R3.0
 G1 X-44.343 Y63.415
 G3 X-41.68 Y65.678 R2.404
 G1 X-41.597 Y67.247 Z3.1
 X-41.509 Y68.922 F9999.9
 X-41.426 Y70.491 Z3.0 F1500.0
 G3 X-43.898 Y73.02 R2.404
 G1 X-45.366 Y72.976
 G3 X-49.636 Y67.272 R5.638
 G1 X-49.513 Y66.106
 G3 X-46.896 Y63.696 R3.0
 G1 X-45.629 Y63.557
 G3 X-43.016 Y65.861 R2.356
 G1 X-42.991 Y67.432 Z3.1
 X-42.966 Y69.014 F9999.9
 X-42.941 Y70.584 Z3.0 F1500.0
 G3 X-45.366 Y72.976 R2.356
 G1 X-46.612 Y72.939
 G3 X-50.874 Y67.311 R5.476
 G1 X-50.747 Y66.197
 G3 X-48.139 Y63.833 R3.0
 G1 X-46.896 Y63.696
 G3 X-44.332 Y65.945 R2.312
 G1 X-44.232 Y70.579
 G3 X-46.612 Y72.939 R2.312
 G1 X-47.971 Y72.899
 G3 X-52.073 Y67.007 R5.422
 G1 X-51.962 Y66.255
 G3 X-49.373 Y63.969 R3.0
 G1 X-48.139 Y63.833
 G3 X-45.624 Y66.093 R2.267
 G1 X-45.637 Y70.64
 G3 X-47.971 Y72.899 R2.267
 G1 X-49.312 Y72.859
 G3 X-53.219 Y66.577 R5.429
 X-50.591 Y64.103 R3.0
 G1 X-49.373 Y63.969
 G3 X-46.907 Y66.237 R2.223
 G1 X-47.024 Y70.696
 G3 X-49.312 Y72.859 R2.223
 G1 X-50.56 Y72.822
 G3 X-54.414 Y66.742 R5.252
 X-51.78 Y64.234 R3.0
 G1 X-50.591 Y64.103
 G3 X-48.173 Y66.341 R2.18
 G1 X-48.317 Y70.715
 G3 X-50.56 Y72.822 R2.18
 G1 X-51.794 Y72.786
 G3 X-55.605 Y66.927 R5.139
 X-52.962 Y64.364 R3.0
 G1 X-51.78 Y64.234
 G3 X-49.41 Y66.451 R2.138
 G1 X-49.595 Y70.741
 G3 X-51.794 Y72.786 R2.138
 G1 X-53.014 Y72.75
 G3 X-56.756 Y66.971 R5.048
 X-54.127 Y64.493 R3.0
 G1 X-52.962 Y64.364
 G3 X-50.639 Y66.557 R2.096
 G1 X-50.858 Y70.763
 G3 X-53.014 Y72.75 R2.096
 G1 X-54.22 Y72.714
 G3 X-57.899 Y67.124 R4.885
 X-55.265 Y64.618 R3.0
 G1 X-54.127 Y64.493
 G3 X-51.851 Y66.663 R2.055
 G1 X-52.107 Y70.787
 G3 X-54.22 Y72.714 R2.055
 G1 X-55.506 Y72.676
 G3 X-59.052 Y67.423 R4.805
 X-56.396 Y64.742 R3.0
 G1 X-55.265 Y64.618
 G3 X-53.039 Y66.822 R2.015
 G1 X-53.443 Y70.862
 G3 X-55.508 Y72.676 R2.015
 G1 X-56.676 Y72.641
 G3 X-60.164 Y67.628 R4.681
 X-57.501 Y64.864 R3.0
 G1 X-56.396 Y64.742
 G3 X-54.216 Y66.924 R1.976
 G1 X-54.653 Y70.883
 G3 X-56.676 Y72.641 R1.976
 G1 X-57.652 Y72.612
 X-57.777 Y72.609
 G3 X-61.253 Y67.679 R4.544
 X-58.595 Y64.985 R3.0
 G1 X-57.501 Y64.864
 G3 X-55.357 Y66.942 R1.937
 G1 X-55.663 Y70.828
 G3 X-57.652 Y72.612 R1.937
 G1 X-58.997 Y72.572
 G3 X-62.327 Y67.953 R4.419
 X-59.658 Y65.102 R3.0
 G1 X-58.595 Y64.985
 G3 X-56.507 Y67.147 R1.9
 G1 X-57.061 Y70.947
 G3 X-58.997 Y72.572 R1.9
 G1 X-60.073 Y72.541
 G3 X-63.376 Y68.119 R4.298
 X-60.706 Y65.217 R3.0
 G1 X-59.658 Y65.102
 G3 X-57.613 Y67.232 R1.863
 G1 X-58.176 Y70.957
 G3 X-60.073 Y72.541 R1.863
 G1 X-61.141 Y72.509
 G3 X-64.402 Y68.388 R4.153
 X-61.731 Y65.33 R3.0
 G1 X-60.706 Y65.217
 G3 X-58.702 Y67.319 R1.826
 G1 X-59.283 Y70.97
 G3 X-61.141 Y72.509 R1.826
 G1 X-62.19 Y72.478
 G3 X-65.414 Y68.411 R4.048
 X-62.743 Y65.441 R3.0
 G1 X-61.731 Y65.33
 G3 X-59.77 Y67.407 R1.791
 G1 X-60.371 Y70.985
 G3 X-62.19 Y72.478 R1.791
 G1 X-63.229 Y72.447
 X-63.353 Y72.443
 G3 X-66.404 Y68.686 R3.936
 X-63.737 Y65.551 R3.0
 G1 X-62.743 Y65.441
 G3 X-60.822 Y67.495 R1.756
 G1 X-61.448 Y71.001
 G3 X-63.229 Y72.447 R1.756
 G1 X-64.369 Y72.413
 G3 X-67.365 Y68.883 R3.791
 X-64.703 Y65.657 R3.0
 G1 X-63.737 Y65.551
 G3 X-61.867 Y67.641 R1.723
 G1 X-62.637 Y71.069
 G3 X-64.369 Y72.413 R1.723
 G1 X-65.358 Y72.384
 G3 X-68.302 Y69.107 R3.627
 X-65.652 Y65.762 R3.0
 G1 X-64.703 Y65.657
 G3 X-62.873 Y67.724 R1.69
 G1 X-63.663 Y71.082
 G3 X-65.358 Y72.384 R1.69
 G1 X-66.347 Y72.355
 G3 X-69.213 Y69.324 R3.473
 X-66.579 Y65.864 R3.0
 G1 X-65.652 Y65.762
 G3 X-63.864 Y67.813 R1.657
 G1 X-64.69 Y71.102
 G3 X-66.347 Y72.355 R1.657
 G1 X-67.335 Y72.325
 G3 X-70.109 Y69.51 R3.41
 X-67.491 Y65.964 R3.0
 G1 X-66.579 Y65.864
 G3 X-64.833 Y67.912 R1.626
 G1 X-65.719 Y71.131
 G3 X-67.335 Y72.325 R1.626
 G1 X-68.356 Y72.295
 G3 X-70.951 Y69.793 R3.291
 X-68.374 Y66.061 R3.0
 G1 X-67.491 Y65.964
 G3 X-65.793 Y68.033 R1.597
 G1 X-66.785 Y71.179
 G3 X-68.356 Y72.295 R1.597
 G1 X-69.316 Y72.267
 G3 X-71.797 Y69.958 R3.092
 X-69.239 Y66.157 R3.0
 G1 X-68.374 Y66.061
 G3 X-66.72 Y68.136 R1.569
 G1 X-67.789 Y71.213
 G3 X-69.318 Y72.267 R1.569
 G1 X-70.182 Y72.241
 G3 X-72.574 Y70.277 R2.867
 X-70.09 Y66.25 R3.0
 G1 X-69.239 Y66.157
 G3 X-67.62 Y68.199 R1.539
 G1 X-68.685 Y71.215
 G3 X-70.182 Y72.241 R1.539
 G1 X-71.146 Y72.213
 G3 X-73.342 Y67.693 R3.191
 X-71.638 Y66.421 R2.096
 G1 X-70.09 Y66.25
 G3 X-68.519 Y68.317 R1.514
 G1 X-69.693 Y71.255
 G3 X-71.146 Y72.213 R1.514
 G1 X-72.03 Y72.186
 G3 X-74.005 Y70.869 R2.555
 X-74.323 Y69.783 R2.096
 G1 X-74.334 Y68.807
 X-74.332 Y68.521
 X-74.324 Y68.426
 G3 X-72.464 Y66.512 R2.096
 G1 X-71.638 Y66.421
 G3 X-70.741 Y66.982 R0.854
 X-71.079 Y67.985 R0.854
 G1 X-73.012 Y69.243
 G3 X-74.332 Y68.521 R0.854
 X-73.39 Y66.614 R1.45
 G1 X-72.464 Y66.512
 G3 X-70.894 Y67.766 R1.423
 G1 X-70.574 Y70.605
 G3 X-72.03 Y72.186 R1.423
 G1 X-72.958 Y72.159
 X-74.081 Y71.711
 G3 X-74.323 Y69.783 R3.115
 X-73.775 Y69.104 R0.685
 X-73.004 Y69.514 R0.685
 G1 X-72.319 Y71.177
 X-72.304 Y71.213
 G3 X-72.958 Y72.159 R0.685
 G1 X-73.267 Y72.15
 G3 X-74.081 Y71.711 R1.012
 G1 X-74.137 Y71.64
 X-74.243 Y71.4
 G3 X-74.092 Y69.854 R3.0
 G0 Z21.0
 X-10.961 Y37.399
 G3 X-17.278 Z20.589 I-3.158 J0.0 K0.821
 X-10.968 Z20.179 I3.155 J0.0 K0.82
 X-17.271 Z19.77 I-3.151 J0.0 K0.819
 X-10.976 Z19.361 I3.148 J0.0 K0.818
 X-17.263 Z18.952 I-3.143 J0.0 K0.817
 X-10.983 Z18.544 I3.14 J0.0 K0.816
 X-17.256 Z18.137 I-3.136 J0.0 K0.815
 X-10.991 Z17.73 I3.133 J0.0 K0.814
 X-17.248 Z17.323 I-3.128 J0.0 K0.813
 X-10.998 Z16.917 I3.125 J0.0 K0.812
 X-17.241 Z16.511 I-3.121 J0.0 K0.811
 X-11.005 Z16.106 I3.118 J0.0 K0.81
 X-17.233 Z15.701 I-3.114 J0.0 K0.809
 X-11.013 Z15.297 I3.11 J0.0 K0.808
 X-17.226 Z14.893 I-3.106 J0.0 K0.808
 X-11.02 Z14.49 I3.103 J0.0 K0.807
 X-17.219 Z14.087 I-3.099 J0.0 K0.806
 X-11.027 Z13.685 I3.096 J0.0 K0.805
 X-17.211 Z13.283 I-3.092 J0.0 K0.804
 X-11.035 Z12.882 I3.088 J0.0 K0.803
 X-17.204 Z12.481 I-3.084 J0.0 K0.802
 X-11.042 Z12.08 I3.081 J0.0 K0.801
 X-17.197 Z11.68 I-3.077 J0.0 K0.8
 X-11.049 Z11.281 I3.074 J0.0 K0.799
 X-17.19 Z10.882 I-3.07 J0.0 K0.798
 X-11.057 Z10.483 I3.067 J0.0 K0.797
 X-17.182 Z10.085 I-3.062 J0.0 K0.796
 X-11.064 Z9.688 I3.059 J0.0 K0.795
 X-17.175 Z9.291 I-3.055 J0.0 K0.794
 X-11.071 Z8.894 I3.052 J0.0 K0.793
 X-17.168 Z8.498 I-3.048 J0.0 K0.792
 X-11.078 Z8.102 I3.045 J0.0 K0.791
 X-17.161 Z7.707 I-3.041 J0.0 K0.79
 X-11.086 Z7.312 I3.038 J0.0 K0.79
 X-17.153 Z6.918 I-3.033 J0.0 K0.789
 X-11.093 Z6.524 I3.03 J0.0 K0.788
 X-17.146 Z6.13 I-3.026 J0.0 K0.787
 X-11.1 Z5.738 I3.023 J0.0 K0.786
 X-17.139 Z5.345 I-3.019 J0.0 K0.785
 X-11.107 Z4.953 I3.016 J0.0 K0.784
 X-17.132 Z4.562 I-3.012 J0.0 K0.783
 X-11.114 Z4.171 I3.009 J0.0 K0.782
 X-17.125 Z3.78 I-3.005 J0.0 K0.781
 X-11.121 Z3.39 I3.002 J0.0 K0.78
 X-17.121 Z3.0 I-3.0 J0.0 K0.78
 I3.0 J0.0
 G1 X-17.118 Y37.337
 G3 X-16.756 Y35.064 R2.349
 X-15.303 Y34.221 R2.096
 G1 X-14.467 Y34.125
 X-13.785 Y34.048
 G3 X-11.574 Y34.843 R3.006
 X-10.859 Y36.414 R2.096
 G1 X-10.855 Y37.704
 G3 X-11.381 Y39.65 R2.905
 X-12.892 Y40.551 R2.096
 G1 X-13.847 Y40.651
 G3 X-17.732 Y38.649 R3.463
 X-15.436 Y34.236 R3.0
 G1 X-14.57 Y34.137
 X-14.454 Y34.124
 X-12.739 Y33.928
 X-11.979 Y33.974
 G3 X-10.862 Y35.393 R1.465
 G1 X-10.859 Y36.414
 X-10.855 Y37.704
 X-10.85 Y39.177
 X-11.045 Y39.986
 G3 X-12.892 Y40.551 R2.282
 G1 X-13.847 Y40.651
 X-15.663 Y40.842
 G3 X-18.897 Y38.072 R3.439
 X-16.333 Y34.338 R3.0
 G1 X-15.436 Y34.236
 X-12.739 Y33.928
 G3 X-11.31 Y34.032 R1.287
 X-10.862 Y35.393 R1.287
 G1 X-10.85 Y39.177
 X-11.045 Y39.986
 G3 X-11.898 Y40.484 R1.175
 G1 X-15.656 Y40.841
 X-15.668 Y40.842
 X-16.651 Y40.946
 G3 X-19.882 Y37.879 R3.44
 X-17.257 Y34.443 R3.0
 G1 X-16.333 Y34.338
 G3 X-14.525 Y36.313 R1.654
 G1 X-15.204 Y39.632
 G3 X-16.651 Y40.946 R1.654
 G1 X-17.635 Y41.049
 G3 X-20.78 Y38.103 R3.422
 X-18.175 Y34.548 R3.0
 G1 X-17.257 Y34.443
 G3 X-15.455 Y36.446 R1.654
 G1 X-16.193 Y39.763
 G3 X-17.635 Y41.049 R1.654
 G1 X-18.578 Y41.148
 G3 X-21.747 Y37.941 R3.497
 X-19.102 Y34.654 R3.0
 G1 X-18.175 Y34.548
 G3 X-16.377 Y36.563 R1.653
 G1 X-17.142 Y39.876
 G3 X-18.58 Y41.148 R1.653
 G1 X-19.441 Y41.239
 G3 X-22.658 Y38.195 R3.416
 X-20.032 Y34.76 R3.0
 G1 X-19.102 Y34.654
 G3 X-17.303 Y36.632 R1.648
 G1 X-18.001 Y39.94
 G3 X-19.441 Y41.239 R1.648
 G1 X-20.428 Y41.342
 G3 X-23.606 Y38.113 R3.409
 X-20.958 Y34.865 R3.0
 G1 X-20.032 Y34.76
 G3 X-18.238 Y36.765 R1.649
 G1 X-18.993 Y40.07
 G3 X-20.428 Y41.342 R1.649
 G1 X-21.415 Y41.446
 G3 X-24.513 Y38.417 R3.486
 X-21.889 Y34.971 R3.0
 G1 X-20.958 Y34.865
 G3 X-19.17 Y36.9 R1.649
 G1 X-19.986 Y40.202
 G3 X-21.415 Y41.446 R1.649
 G1 X-22.278 Y41.537
 G3 X-25.421 Y38.612 R3.415
 X-22.812 Y35.077 R3.0
 G1 X-21.889 Y34.971
 G3 X-20.099 Y36.969 R1.644
 G1 X-20.846 Y40.265
 G3 X-22.278 Y41.537 R1.644
 G1 X-23.143 Y41.628
 G3 X-26.361 Y38.603 R3.393
 X-23.733 Y35.182 R3.0
 G1 X-22.812 Y35.077
 G3 X-21.021 Y37.042 R1.64
 G1 X-21.709 Y40.333
 G3 X-23.143 Y41.628 R1.64
 G1 X-24.135 Y41.732
 G3 X-27.266 Y38.786 R3.419
 X-24.651 Y35.286 R3.0
 G1 X-23.733 Y35.182
 G3 X-21.949 Y37.18 R1.641
 G1 X-22.707 Y40.469
 G3 X-24.135 Y41.732 R1.641
 G1 X-25.002 Y41.823
 G3 X-28.197 Y38.811 R3.405
 X-25.569 Y35.391 R3.0
 G1 X-24.651 Y35.286
 G3 X-22.866 Y37.257 R1.637
 G1 X-23.573 Y40.54
 G3 X-25.002 Y41.823 R1.637
 G1 X-25.996 Y41.928
 G3 X-29.11 Y38.975 R3.415
 X-26.491 Y35.496 R3.0
 G1 X-25.569 Y35.391
 G3 X-23.79 Y37.398 R1.638
 G1 X-24.574 Y40.679
 G3 X-25.996 Y41.928 R1.638
 G1 X-26.865 Y42.019
 G3 X-30.049 Y38.953 R3.413
 X-27.412 Y35.601 R3.0
 G1 X-26.491 Y35.496
 G3 X-24.712 Y37.474 R1.633
 G1 X-25.442 Y40.75
 G3 X-26.865 Y42.019 R1.633
 G1 X-27.841 Y42.121
 G3 X-30.95 Y39.166 R3.432
 X-28.329 Y35.705 R3.0
 G1 X-27.412 Y35.601
 G3 X-25.638 Y37.605 R1.634
 G1 X-26.423 Y40.878
 G3 X-27.841 Y42.121 R1.634
 G1 X-28.694 Y42.211
 G3 X-31.877 Y39.231 R3.372
 X-29.249 Y35.81 R3.0
 G1 X-28.329 Y35.705
 G3 X-26.553 Y37.674 R1.629
 G1 X-27.273 Y40.941
 G3 X-28.694 Y42.211 R1.629
 G1 X-29.671 Y42.314
 G3 X-32.783 Y39.391 R3.405
 X-30.164 Y35.915 R3.0
 G1 X-29.249 Y35.81
 G3 X-27.48 Y37.807 R1.629
 G1 X-28.257 Y41.071
 G3 X-29.671 Y42.314 R1.629
 G1 X-30.527 Y42.404
 G3 X-33.674 Y39.62 R3.357
 X-31.078 Y36.019 R3.0
 G1 X-30.164 Y35.915
 G3 X-28.393 Y37.878 R1.625
 G1 X-29.11 Y41.137
 G3 X-30.527 Y42.404 R1.625
 G1 X-31.508 Y42.507
 G3 X-34.615 Y39.591 R3.354
 X-31.994 Y36.123 R3.0
 G1 X-31.078 Y36.019
 G3 X-29.314 Y38.014 R1.626
 G1 X-30.097 Y41.27
 G3 X-31.508 Y42.507 R1.626
 G1 X-32.366 Y42.597
 G3 X-35.51 Y39.74 R3.247
 X-32.898 Y36.226 R3.0
 G1 X-31.994 Y36.123
 G3 X-30.228 Y38.087 R1.621
 G1 X-30.953 Y41.337
 G3 X-32.366 Y42.597 R1.621
 G1 X-33.35 Y42.7
 G3 X-36.438 Y39.814 R3.251
 X-33.82 Y36.331 R3.0
 G1 X-32.898 Y36.226
 G3 X-31.139 Y38.228 R1.622
 G1 X-31.944 Y41.477
 G3 X-33.35 Y42.7 R1.622
 G1 X-34.333 Y42.804
 G3 X-37.338 Y40.0 R3.276
 X-34.735 Y36.436 R3.0
 G1 X-33.82 Y36.331
 G3 X-32.068 Y38.363 R1.623
 G1 X-32.935 Y41.608
 G3 X-34.333 Y42.804 R1.623
 G1 X-35.194 Y42.894
 G3 X-38.275 Y39.958 R3.326
 X-35.647 Y36.54 R3.0
 G1 X-34.735 Y36.436
 G3 X-32.981 Y38.437 R1.619
 G1 X-33.793 Y41.678
 G3 X-35.194 Y42.894 R1.619
 G1 X-36.104 Y42.99
 G3 X-39.185 Y40.056 R3.329
 X-36.556 Y36.643 R3.0
 G1 X-35.647 Y36.54
 G3 X-33.895 Y38.534 R1.616
 G1 X-34.696 Y41.77
 G3 X-36.096 Y42.989 R1.616
 G1 X-36.962 Y43.08
 G3 X-40.071 Y40.32 R3.264
 X-37.47 Y36.747 R3.0
 G1 X-36.556 Y36.643
 G3 X-34.803 Y38.613 R1.612
 G1 X-35.561 Y41.844
 G3 X-36.962 Y43.08 R1.612
 G1 X-37.955 Y43.184
 G3 X-40.975 Y40.458 R3.261
 X-38.381 Y36.851 R3.0
 G1 X-37.47 Y36.747
 G3 X-35.725 Y38.756 R1.614
 G1 X-36.561 Y41.984
 G3 X-37.955 Y43.184 R1.614
 G1 X-38.865 Y43.28
 G3 X-41.885 Y40.554 R3.257
 X-39.289 Y36.955 R3.0
 G1 X-38.381 Y36.851
 G3 X-36.637 Y38.851 R1.611
 G1 X-37.461 Y42.075
 G3 X-38.853 Y43.279 R1.611
 G1 X-39.82 Y43.38
 G3 X-42.812 Y40.578 R3.254
 X-40.2 Y37.059 R3.0
 G1 X-39.289 Y36.955
 G3 X-37.552 Y38.982 R1.612
 G1 X-38.434 Y42.203
 G3 X-39.82 Y43.38 R1.612
 G1 X-40.666 Y43.469
 G3 X-43.69 Y40.817 R3.241
 X-41.107 Y37.162 R3.0
 G1 X-40.2 Y37.059
 G3 X-38.461 Y39.05 R1.607
 G1 X-39.276 Y42.266
 G3 X-40.666 Y43.469 R1.607
 G1 X-41.636 Y43.571
 G3 X-44.622 Y40.779 R3.226
 X-42.009 Y37.265 R3.0
 G1 X-41.107 Y37.162
 G3 X-39.374 Y39.184 R1.608
 G1 X-40.253 Y42.397
 G3 X-41.636 Y43.571 R1.608
 G1 X-42.584 Y43.671
 G3 X-45.53 Y40.848 R3.305
 X-42.912 Y37.368 R3.0
 G1 X-42.009 Y37.265
 G3 X-40.278 Y39.276 R1.605
 G1 X-41.139 Y42.484
 G3 X-42.521 Y43.664 R1.605
 G1 X-43.373 Y43.754
 G3 X-46.435 Y40.938 R3.227
 X-43.815 Y37.471 R3.0
 G1 X-42.912 Y37.368
 G3 X-41.179 Y39.35 R1.601
 G1 X-41.988 Y42.554
 G3 X-43.373 Y43.754 R1.601
 G1 X-44.35 Y43.856
 G3 X-47.332 Y41.081 R3.217
 X-44.718 Y37.574 R3.0
 G1 X-43.815 Y37.471
 G3 X-42.089 Y39.489 R1.602
 G1 X-42.973 Y42.69
 G3 X-44.35 Y43.856 R1.602
 G1 X-45.205 Y43.946
 G3 X-48.213 Y41.311 R3.139
 X-45.625 Y37.677 R3.0
 G1 X-44.718 Y37.574
 G3 X-42.991 Y39.565 R1.598
 G1 X-43.826 Y42.761
 G3 X-45.205 Y43.946 R1.598
 G1 X-46.187 Y44.05
 G3 X-49.15 Y41.259 R3.183
 X-46.531 Y37.78 R3.0
 G1 X-45.625 Y37.677
 G3 X-43.906 Y39.704 R1.599
 G1 X-44.816 Y42.897
 G3 X-46.187 Y44.05 R1.599
 G1 X-47.121 Y44.148
 G3 X-50.015 Y41.537 R3.198
 X-47.432 Y37.883 R3.0
 G1 X-46.531 Y37.78
 G3 X-44.815 Y39.814 R1.598
 G1 X-45.741 Y42.995
 G3 X-47.111 Y44.147 R1.598
 G1 X-47.972 Y44.237
 G3 X-50.944 Y41.491 R3.178
 X-48.33 Y37.985 R3.0
 G1 X-47.432 Y37.883
 G3 X-45.715 Y39.895 R1.594
 G1 X-46.603 Y43.079
 G3 X-47.972 Y44.237 R1.594
 G1 X-48.837 Y44.328
 G3 X-51.828 Y41.662 R3.144
 X-49.227 Y38.087 R3.0
 G1 X-48.33 Y37.985
 G3 X-46.614 Y39.978 R1.591
 G1 X-47.467 Y43.158
 G3 X-48.837 Y44.328 R1.591
 G1 X-49.791 Y44.428
 G3 X-52.7 Y41.885 R3.13
 X-50.127 Y38.19 R3.0
 G1 X-49.227 Y38.087
 G3 X-47.517 Y40.107 R1.591
 G1 X-48.426 Y43.279
 G3 X-49.791 Y44.428 R1.591
 G1 X-50.672 Y44.521
 G3 X-53.638 Y41.806 R3.126
 X-51.025 Y38.292 R3.0
 G1 X-50.127 Y38.19
 G3 X-48.416 Y40.192 R1.588
 G1 X-49.296 Y43.364
 G3 X-50.66 Y44.52 R1.588
 G1 X-51.617 Y44.62
 G3 X-54.509 Y42.037 R3.129
 X-51.922 Y38.395 R3.0
 G1 X-51.025 Y38.292
 G3 X-49.322 Y40.322 R1.589
 G1 X-50.254 Y43.471
 X-50.26 Y43.491
 G3 X-51.617 Y44.62 R1.589
 G1 X-52.455 Y44.708
 G3 X-55.426 Y42.038 R3.096
 X-52.818 Y38.497 R3.0
 G1 X-51.922 Y38.395
 G3 X-50.217 Y40.392 R1.584
 G1 X-51.094 Y43.556
 G3 X-52.455 Y44.708 R1.584
 G1 X-53.418 Y44.809
 G3 X-56.302 Y42.224 R3.117
 X-53.712 Y38.599 R3.0
 G1 X-52.818 Y38.497
 G3 X-51.12 Y40.526 R1.585
 G1 X-52.057 Y43.661
 X-52.065 Y43.687
 G3 X-53.418 Y44.809 R1.585
 G1 X-54.26 Y44.898
 G3 X-57.17 Y42.435 R3.065
 X-54.606 Y38.701 R3.0
 G1 X-53.712 Y38.599
 G3 X-52.012 Y40.599 R1.581
 G1 X-52.901 Y43.743
 X-52.905 Y43.756
 G3 X-54.26 Y44.898 R1.581
 G1 X-55.23 Y45.0
 G3 X-57.938 Y42.834 R3.004
 X-55.469 Y38.799 R3.0
 G1 X-54.606 Y38.701
 G3 X-52.914 Y40.738 R1.583
 G1 X-53.868 Y43.841
 X-53.883 Y43.891
 G3 X-55.23 Y45.0 R1.583
 G1 X-56.079 Y45.089
 G3 X-58.954 Y42.494 R3.113
 X-56.357 Y38.9 R3.0
 G1 X-55.469 Y38.799
 G3 X-53.778 Y40.827 R1.58
 G1 X-54.721 Y43.941
 X-54.732 Y43.976
 G3 X-56.079 Y45.089 R1.58
 G1 X-56.934 Y45.179
 G3 X-59.825 Y42.67 R3.067
 X-57.244 Y39.001 R3.0
 G1 X-56.357 Y38.9
 G3 X-54.665 Y40.909 R1.576
 G1 X-55.579 Y44.031
 X-55.586 Y44.054
 G3 X-56.934 Y45.179 R1.576
 G1 X-57.909 Y45.281
 G3 X-60.685 Y42.879 R3.064
 X-58.132 Y39.102 R3.0
 G1 X-57.244 Y39.001
 G3 X-55.562 Y41.05 R1.579
 G1 X-56.547 Y44.133
 X-56.565 Y44.191
 G3 X-57.904 Y45.281 R1.579
 G1 X-58.644 Y45.359
 G3 X-61.571 Y42.974 R3.003
 X-59.017 Y39.203 R3.0
 G1 X-58.132 Y39.102
 G3 X-56.44 Y41.074 R1.569
 G1 X-57.294 Y44.21
 G3 X-58.644 Y45.359 R1.569
 G1 X-59.702 Y45.47
 G3 X-62.461 Y43.057 R3.06
 X-59.902 Y39.304 R3.0
 G1 X-59.017 Y39.203
 G3 X-57.341 Y41.26 R1.576
 G1 X-58.346 Y44.322
 X-58.369 Y44.394
 G3 X-59.702 Y45.47 R1.576
 G1 X-60.511 Y45.555
 G3 X-63.379 Y43.006 R3.056
 X-60.784 Y39.405 R3.0
 G1 X-59.902 Y39.304
 G3 X-58.222 Y41.321 R1.57
 G1 X-59.16 Y44.407
 X-59.172 Y44.45
 G3 X-60.511 Y45.555 R1.57
 G1 X-61.328 Y45.641
 G3 X-64.23 Y43.235 R2.996
 X-61.665 Y39.505 R3.0
 G1 X-60.784 Y39.405
 G3 X-59.101 Y41.386 R1.565
 G1 X-59.979 Y44.488
 X-59.985 Y44.511
 G3 X-61.328 Y45.641 R1.565
 G1 X-62.272 Y45.74
 G3 X-65.081 Y43.436 R2.98
 X-62.544 Y39.605 R3.0
 G1 X-61.665 Y39.505
 G3 X-59.989 Y41.516 R1.566
 G1 X-60.923 Y44.59
 X-60.937 Y44.638
 G3 X-62.272 Y45.74 R1.566
 G1 X-63.209 Y45.838
 G3 X-65.849 Y43.769 R2.944
 X-63.392 Y39.702 R3.0
 G1 X-62.544 Y39.605
 G3 X-60.874 Y41.64 R1.567
 G1 X-61.852 Y44.69
 X-61.874 Y44.758
 G3 X-63.202 Y45.838 R1.567
 G1 X-64.03 Y45.925
 G3 X-66.822 Y43.572 R2.988
 X-64.268 Y39.802 R3.0
 G1 X-63.392 Y39.702
 G3 X-61.723 Y41.725 R1.564
 G1 X-62.683 Y44.777
 X-62.702 Y44.838
 G3 X-64.03 Y45.925 R1.564
 G1 X-64.871 Y46.013
 G3 X-67.676 Y43.744 R2.95
 X-65.142 Y39.902 R3.0
 G1 X-64.268 Y39.802
 G3 X-62.598 Y41.804 R1.56
 G1 X-63.526 Y44.866
 X-63.541 Y44.914
 G3 X-64.871 Y46.013 R1.56
 G1 X-65.726 Y46.103
 G3 X-68.592 Y43.688 R2.977
 X-66.016 Y40.001 R3.0
 G1 X-65.142 Y39.902
 G3 X-63.473 Y41.892 R1.557
 G1 X-64.384 Y44.956
 X-64.396 Y44.998
 G3 X-65.726 Y46.103 R1.557
 G1 X-66.706 Y46.206
 G3 X-69.469 Y43.763 R3.006
 X-66.887 Y40.1 R3.0
 G1 X-66.016 Y40.001
 G3 X-64.358 Y42.044 R1.561
 G1 X-65.359 Y45.059
 X-65.388 Y45.146
 G3 X-66.706 Y46.206 R1.561
 G1 X-67.541 Y46.294
 G3 X-70.321 Y43.934 R2.967
 X-67.757 Y40.2 R3.0
 G1 X-66.887 Y40.1
 G3 X-65.229 Y42.122 R1.557
 G1 X-66.198 Y45.147
 X-66.221 Y45.22
 G3 X-67.541 Y46.294 R1.557
 G1 X-68.435 Y46.387
 G3 X-71.203 Y43.979 R2.979
 X-68.625 Y40.298 R3.0
 G1 X-67.757 Y40.2
 G3 X-66.102 Y42.231 R1.556
 G1 X-67.09 Y45.241
 X-67.118 Y45.325
 G3 X-68.434 Y46.387 R1.556
 G1 X-69.254 Y46.474
 G3 X-72.041 Y44.186 R2.928
 X-69.491 Y40.397 R3.0
 G1 X-68.625 Y40.298
 G3 X-66.968 Y42.304 R1.552
 G1 X-67.915 Y45.327
 X-67.936 Y45.394
 G3 X-69.254 Y46.474 R1.552
 G1 X-70.173 Y46.57
 G3 X-72.296 Y45.487 R2.605
 X-72.735 Y44.013 R2.096
 G1 X-72.639 Y42.894
 X-72.588 Y42.339
 X-72.568 Y42.233
 G3 X-70.745 Y40.54 R2.096
 G1 X-69.491 Y40.397
 G3 X-68.439 Y41.038 R1.004
 X-68.799 Y42.217 R1.004
 G1 X-71.061 Y43.808
 G3 X-72.639 Y42.894 R1.004
 X-72.038 Y40.795 R2.484
 G1 X-70.745 Y40.54
 G3 X-69.064 Y41.924 R1.514
 G1 X-68.822 Y44.943
 G3 X-70.173 Y46.57 R1.514
 G1 X-70.945 Y46.651
 G3 X-72.631 Y46.066 R2.105
 X-72.861 Y45.476 R0.715
 G1 X-72.735 Y44.013
 G3 X-71.232 Y43.717 R0.797
 G1 X-70.319 Y45.494
 G3 X-70.945 Y46.651 R0.797
 X-72.861 Y45.861 R1.381
 G1 X-72.872 Y45.598
 X-72.861 Y45.476
 G3 X-72.332 Y44.016 R3.0
 G0 Z21.0
 X-251.753 Y61.37
 G3 X-243.058 Z20.432 I4.347 J0.0 K1.136
 X-251.716 Z19.867 I-4.329 J0.0 K1.131
 X-243.095 Z19.303 I4.311 J0.0 K1.126
 X-251.679 Z18.743 I-4.292 J0.0 K1.121
 X-243.132 Z18.185 I4.274 J0.0 K1.116
 X-251.642 Z17.629 I-4.255 J0.0 K1.112
 X-243.169 Z17.075 I4.237 J0.0 K1.107
 X-251.605 Z16.524 I-4.218 J0.0 K1.102
 X-243.205 Z15.976 I4.2 J0.0 K1.097
 X-251.569 Z15.429 I-4.182 J0.0 K1.093
 X-243.241 Z14.885 I4.164 J0.0 K1.088
 X-251.533 Z14.344 I-4.146 J0.0 K1.083
 X-243.277 Z13.804 I4.128 J0.0 K1.079
 X-251.498 Z13.267 I-4.11 J0.0 K1.074
 X-243.312 Z12.733 I4.093 J0.0 K1.069
 X-251.462 Z12.2 I-4.075 J0.0 K1.065
 X-243.347 Z11.67 I4.057 J0.0 K1.06
 X-251.427 Z11.143 I-4.04 J0.0 K1.056
 X-243.382 Z10.617 I4.022 J0.0 K1.051
 X-251.393 Z10.094 I-4.006 J0.0 K1.046
 X-243.417 Z9.573 I3.988 J0.0 K1.042
 X-251.358 Z9.054 I-3.971 J0.0 K1.037
 X-243.451 Z8.538 I3.953 J0.0 K1.033
 X-251.324 Z8.023 I-3.937 J0.0 K1.029
 X-243.485 Z7.511 I3.919 J0.0 K1.024
 X-251.291 Z7.002 I-3.903 J0.0 K1.02
 X-243.519 Z6.494 I3.886 J0.0 K1.015
 X-251.257 Z5.988 I-3.869 J0.0 K1.011
 X-243.552 Z5.485 I3.852 J0.0 K1.007
 X-251.224 Z4.984 I-3.836 J0.0 K1.002
 X-243.585 Z4.485 I3.82 J0.0 K0.998
 X-251.191 Z3.988 I-3.803 J0.0 K0.994
 X-243.618 Z3.494 I3.787 J0.0 K0.989
 X-251.175 Z3.0 I-3.778 J0.0 K0.987
 X-250.8 Y63.01 I3.779 J0.0
 G1 X-251.08 Y62.211
 X-251.175 Y61.37
 X-251.172 Y61.31
 G3 X-249.242 Y57.262 R3.368
 X-248.457 Y56.997 R3.0
 G1 X-247.816 Y56.875
 G3 X-243.278 Y59.346 R4.537
 X-242.988 Y60.404 R3.0
 G1 X-242.922 Y61.187
 G3 X-245.878 Y65.69 R4.455
 X-246.998 Y65.869 R3.0
 G1 X-247.773 Y65.844
 G3 X-252.3 Y59.514 R5.283
 X-249.945 Y57.279 R3.0
 G1 X-248.025 Y56.915
 X-247.816 Y56.875
 X-246.365 Y56.6
 G3 X-244.18 Y57.032 R3.416
 X-243.133 Y58.676 R2.096
 G1 X-242.988 Y60.404
 X-242.922 Y61.187
 X-242.834 Y62.238
 X-242.767 Y62.525
 G3 X-243.451 Y65.095 R3.296
 X-245.19 Y65.926 R2.096
 G1 X-246.998 Y65.869
 X-247.773 Y65.844
 X-249.563 Y65.787
 G3 X-253.553 Y60.114 R5.094
 X-251.132 Y57.505 R3.0
 G1 X-249.945 Y57.279
 X-246.365 Y56.6
 X-245.077 Y56.355
 X-243.812 Y56.56
 G3 X-243.241 Y57.394 R1.024
 G1 X-243.133 Y58.676
 G3 X-244.525 Y59.146 R0.757
 G1 X-245.573 Y57.506
 G3 X-245.077 Y56.355 R0.757
 X-243.241 Y57.394 R1.197
 G1 X-242.796 Y62.348
 G2 X-242.767 Y62.525 R1.288
 G1 X-242.565 Y63.388
 X-242.533 Y63.472
 G3 X-242.663 Y65.102 R2.314
 X-244.044 Y65.962 R1.465
 G1 X-245.19 Y65.926
 G3 X-245.673 Y64.277 R0.904
 G1 X-243.889 Y63.051
 G3 X-242.533 Y63.472 R0.904
 G1 X-242.229 Y64.265
 G3 X-242.493 Y65.752 R1.611
 X-242.72 Y65.921 R0.5
 G1 X-244.044 Y65.962
 G3 X-244.382 Y64.833 R0.621
 G1 X-243.358 Y64.114
 X-243.166 Y63.979
 G3 X-242.229 Y64.265 R0.621
 X-242.72 Y65.921 R1.081
 X-243.377 Y66.025 R1.711
 G1 X-249.551 Y65.788
 X-249.563 Y65.787
 X-250.754 Y65.75
 G3 X-254.722 Y60.582 R4.871
 X-252.283 Y57.723 R3.0
 G1 X-251.132 Y57.505
 G3 X-248.684 Y59.502 R2.063
 G1 X-248.625 Y63.658
 G3 X-250.754 Y65.75 R2.063
 G1 X-252.138 Y65.706
 G3 X-255.833 Y60.712 R4.771
 X-253.397 Y57.935 R3.0
 G1 X-252.283 Y57.723
 G3 X-249.916 Y59.765 R1.996
 G1 X-250.08 Y63.792
 G3 X-252.138 Y65.706 R1.996
 G1 X-253.295 Y65.669
 G3 X-256.913 Y61.164 R4.491
 X-254.473 Y58.139 R3.0
 G1 X-253.397 Y57.935
 G3 X-251.105 Y59.932 R1.934
 G1 X-251.303 Y63.834
 G3 X-253.295 Y65.669 R1.934
 G1 X-254.506 Y65.631
 G3 X-257.972 Y61.266 R4.351
 X-255.532 Y58.34 R3.0
 G1 X-254.473 Y58.139
 G3 X-252.258 Y60.138 R1.873
 G1 X-252.58 Y63.918
 G3 X-254.506 Y65.631 R1.873
 G1 X-255.64 Y65.595
 G3 X-258.98 Y61.708 R4.14
 X-256.548 Y58.533 R3.0
 G1 X-255.532 Y58.34
 G3 X-253.39 Y60.314 R1.814
 G1 X-253.779 Y63.973
 G3 X-255.64 Y65.595 R1.814
 G1 X-256.681 Y65.562
 G3 X-258.344 Y64.912 R2.762
 X-259.154 Y63.257 R2.096
 G1 X-259.153 Y60.445
 X-259.083 Y59.891
 G3 X-257.932 Y58.795 R1.465
 G1 X-256.548 Y58.533
 G3 X-255.64 Y59.046 R0.808
 X-255.995 Y60.027 R0.808
 G1 X-257.943 Y61.145
 G3 X-259.153 Y60.445 R0.808
 G1 Y59.897
 G3 X-257.932 Y58.795 R1.155
 X-255.961 Y60.001 R1.72
 G1 X-254.976 Y63.358
 G3 X-256.681 Y65.562 R1.72
 G1 X-257.773 Y65.527
 X-258.913 Y65.123
 X-259.154 Y64.466
 Y63.257
 G3 X-258.631 Y62.609 R0.664
 X-257.886 Y62.98 R0.664
 G1 X-257.168 Y64.543
 X-257.148 Y64.586
 G3 X-257.773 Y65.527 R0.664
 X-258.913 Y65.123 R1.229
 G1 X-259.018 Y64.981
 X-259.119 Y64.732
 G3 X-258.912 Y63.193 R3.0
 G0 Z21.0
 Z75.0
 X-60.0 Y40.0
 Z605.0
 M5
 X-185.0 Y200.0
* Error - Speed out of range
 G21 G90 G40
 T02 M06 (5.0 MM DIA MULTI-FLUTE END MILL)
 G54
 T02 M1
 S9999 M3 M43
* Error - Speed out of range
 G0 X-60.0 Y40.0 A0.0 C0.0
 G43 Z75.0 H02 M9
 X-241.195 Y60.766
 Z21.0
 Z4.0
 G1 Z3.0 F1000.0
 G3 X-239.366 Y61.382 R1.25
 G1 X-239.292 Y61.687
 X-239.203 Y62.484
 X-238.911 Y63.054
 X-238.658 Y63.359
 G3 X-240.558 Y69.441 R4.407
 X-241.208 Y69.597 R1.25
 G1 X-242.436 Y69.554
 G3 X-243.432 Y67.61 R1.25
 G1 X-243.068 Y67.066 Z3.1
 X-241.023 Y64.007 F9999.9
 X-240.659 Y63.462 Z3.0 F1000.0
 G3 X-238.658 Y63.359 R1.25
 G1 X-238.501 Y63.547
 X-238.248 Y63.743
 G3 X-238.397 Y68.345 R3.768
 G1 X-239.265 Y69.342
 G3 X-240.113 Y69.635 R1.25
 G1 X-241.208 Y69.597
 G3 X-242.238 Y67.708 R1.25
 G1 X-241.904 Y67.146 Z3.1
 X-240.421 Y64.655 F9999.9
 X-240.086 Y64.093 Z3.0 F1000.0
 G3 X-238.248 Y63.743 R1.25
 G1 X-237.994 Y63.939
 X-237.922 Y63.973
 G3 X-237.3 Y67.621 R3.073
 G1 X-238.325 Y69.318
 G3 X-239.234 Y69.666 R1.25
 G1 X-240.113 Y69.635
 G3 X-241.191 Y67.833 R1.25
 G1 X-240.902 Y67.246 Z3.1
 X-239.863 Y65.139 F9999.9
 X-239.573 Y64.552 Z3.0 F1000.0
 G3 X-237.922 Y63.973 R1.25
 G1 X-237.478 Y64.181
 G3 X-236.785 Y68.106 R3.26
 G1 X-237.377 Y69.186
 G3 X-238.427 Y69.694 R1.25
 G1 X-239.234 Y69.666
 G3 X-240.359 Y67.971 R1.25
 G1 X-240.126 Y67.359 Z3.1
 X-239.409 Y65.48 F9999.9
 X-239.176 Y64.868 Z3.0 F1000.0
 G3 X-237.478 Y64.181 R1.25
 G1 X-237.414 Y64.211
 X-237.37 Y64.213
 G3 X-235.917 Y67.339 R2.635
 X-236.637 Y69.222 R4.108
 X-237.68 Y69.72 R1.25
 G1 X-238.427 Y69.694
 G3 X-239.574 Y68.063 R1.25
 G1 X-239.374 Y67.44 Z3.1
 X-238.818 Y65.704 F9999.9
 X-238.619 Y65.081 Z3.0 F1000.0
 G3 X-237.37 Y64.213 R1.25
 G1 X-236.942 Y64.233
 G3 X-235.3 Y67.472 R2.867
 X-235.895 Y69.202 R3.837
 X-236.969 Y69.744 R1.25
 G1 X-237.68 Y69.72
 G3 X-238.859 Y68.21 R1.25
 G1 X-238.723 Y67.57 Z3.1
 X-238.359 Y65.862 F9999.9
 X-238.223 Y65.222 Z3.0 F1000.0
 G3 X-236.942 Y64.233 R1.25
 G1 X-236.471 Y64.255
 G3 X-234.72 Y67.91 R3.104
 G1 X-235.184 Y69.175
 G3 X-236.291 Y69.768 R1.25
 G1 X-236.969 Y69.744
 G3 X-238.165 Y68.331 R1.25
 G1 X-238.079 Y67.682 Z3.1
 X-237.854 Y65.989 F9999.9
 X-237.768 Y65.34 Z3.0 F1000.0
 G3 X-236.471 Y64.255 R1.25
 G1 X-236.0 Y64.277
 G3 X-234.064 Y67.798 R3.098
 G1 X-234.531 Y69.212
 G3 X-235.629 Y69.791 R1.25
 G1 X-236.291 Y69.768
 G3 X-237.494 Y68.421 R1.25
 G1 X-237.443 Y67.768 Z3.1
 X-237.311 Y66.082 F9999.9
 X-237.26 Y65.43 Z3.0 F1000.0
 G3 X-236.0 Y64.277 R1.25
 G1 X-235.528 Y64.283
 G3 X-233.476 Y68.145 R3.198
 G1 X-233.876 Y69.228
 G3 X-234.979 Y69.813 R1.25
 G1 X-235.629 Y69.791
 G3 X-236.836 Y68.523 R1.25
 G1 X-236.826 Y67.869 Z3.1
 X-236.801 Y66.168 F9999.9
 X-236.791 Y65.514 Z3.0 F1000.0
 G3 X-235.528 Y64.283 R1.25
 G1 X-234.938 Y64.289
 G3 X-232.834 Y68.123 R3.26
 G1 X-233.214 Y69.221
 G3 X-234.335 Y69.836 R1.25
 G1 X-234.979 Y69.813
 G3 X-236.186 Y68.571 R1.25
 G1 X-236.189 Y67.916 Z3.1
 X-236.198 Y66.2 F9999.9
 X-236.202 Y65.546 Z3.0 F1000.0
 G3 X-234.938 Y64.289 R1.25
 G1 X-234.584 Y64.293
 X-234.404 Y64.289
 G3 X-232.211 Y68.075 R3.203
 G1 X-232.557 Y69.196
 G3 X-233.704 Y69.858 R1.25
 G1 X-234.335 Y69.836
 G3 X-235.541 Y68.62 R1.25
 G1 X-235.558 Y67.966 Z3.1
 X-235.605 Y66.226 F9999.9
 X-235.623 Y65.572 Z3.0 F1000.0
 G3 X-234.404 Y64.289 R1.25
 G1 X-233.853 Y64.275
 G3 X-231.551 Y67.928 R3.24
 G1 X-231.921 Y69.225
 G3 X-233.064 Y69.88 R1.25
 G1 X-233.704 Y69.858
 G3 X-234.909 Y68.674 R1.25
 G1 X-234.943 Y68.02 Z3.1
 X-235.036 Y66.243 F9999.9
 X-235.07 Y65.59 Z3.0 F1000.0
 G3 X-233.853 Y64.275 R1.25
 G1 X-233.321 Y64.262
 G3 X-230.907 Y67.694 R3.178
 G1 X-231.302 Y69.276
 G3 X-232.429 Y69.902 R1.25
 G1 X-233.064 Y69.88
 G3 X-234.266 Y68.738 R1.25
 G1 X-234.322 Y68.086 Z3.1
 X-234.479 Y66.271 F9999.9
 X-234.536 Y65.619 Z3.0 F1000.0
 G3 X-233.321 Y64.262 R1.25
 G1 X-233.144 Y64.258
 X-232.658 Y64.26
 G3 X-230.281 Y67.717 R3.319
 G1 X-230.661 Y69.284
 G3 X-231.796 Y69.924 R1.25
 G1 X-232.429 Y69.902
 G3 X-233.631 Y68.763 R1.25
 G1 X-233.688 Y68.111 Z3.1
 X-233.851 Y66.272 F9999.9
 X-233.909 Y65.62 Z3.0 F1000.0
 G3 X-232.658 Y64.26 R1.25
 G1 X-232.042 Y64.263
 G3 X-229.662 Y68.02 R3.364
 G1 X-230.019 Y69.29
 G3 X-231.163 Y69.946 R1.25
 G1 X-231.796 Y69.924
 G3 X-232.997 Y68.791 R1.25
 G1 X-233.058 Y68.139 Z3.1
 X-233.231 Y66.281 F9999.9
 X-233.292 Y65.629 Z3.0 F1000.0
 G3 X-232.042 Y64.263 R1.25
 G1 X-231.418 Y64.266
 G3 X-229.035 Y67.452 R3.244
 X-229.393 Y69.318 R3.416
 X-230.533 Y69.968 R1.25
 G1 X-231.163 Y69.946
 G3 X-232.364 Y68.816 R1.25
 G1 X-232.426 Y68.164 Z3.1
 X-232.606 Y66.286 F9999.9
 X-232.668 Y65.635 Z3.0 F1000.0
 G3 X-231.418 Y64.266 R1.25
 G1 X-230.807 Y64.269
 G3 X-228.411 Y67.439 R3.263
 X-228.755 Y69.312 R3.368
 X-229.91 Y69.99 R1.25
 G1 X-230.533 Y69.968
 G3 X-231.733 Y68.844 R1.25
 G1 X-231.799 Y68.193 Z3.1
 X-231.99 Y66.295 F9999.9
 X-232.056 Y65.644 Z3.0 F1000.0
 G3 X-230.807 Y64.269 R1.25
 G1 X-230.188 Y64.272
 G3 X-227.805 Y68.33 R3.521
 G1 X-228.17 Y69.408
 G3 X-229.284 Y70.011 R1.25
 G1 X-229.91 Y69.99
 G3 X-231.11 Y68.867 R1.25
 G1 X-231.176 Y68.216 Z3.1
 X-231.371 Y66.299 F9999.9
 X-231.437 Y65.648 Z3.0 F1000.0
 G3 X-230.188 Y64.272 R1.25
 G1 X-229.581 Y64.274
 G3 X-227.139 Y67.68 R3.441
 X-227.523 Y69.397 R3.3
 X-228.656 Y70.033 R1.25
 G1 X-229.284 Y70.011
 G3 X-230.483 Y68.895 R1.25
 G1 X-230.553 Y68.244 Z3.1
 X-230.76 Y66.308 F9999.9
 X-230.83 Y65.657 Z3.0 F1000.0
 G3 X-229.581 Y64.274 R1.25
 G1 X-228.967 Y64.277
 G3 X-226.529 Y68.242 R3.505
 G1 X-226.921 Y69.469
 G3 X-228.024 Y70.055 R1.25
 G1 X-228.656 Y70.033
 G3 X-229.855 Y68.922 R1.25
 G1 X-229.927 Y68.271 Z3.1
 X-230.144 Y66.315 F9999.9
 X-230.216 Y65.665 Z3.0 F1000.0
 G3 X-228.967 Y64.277 R1.25
 G1 X-228.345 Y64.28
 G3 X-225.877 Y67.931 R3.41
 G1 X-226.28 Y69.475
 G3 X-227.392 Y70.077 R1.25
 G1 X-228.024 Y70.055
 G3 X-229.223 Y68.947 R1.25
 G1 X-229.296 Y68.296 Z3.1
 X-229.52 Y66.321 F9999.9
 X-229.593 Y65.671 Z3.0 F1000.0
 G3 X-228.345 Y64.28 R1.25
 G1 X-227.737 Y64.283
 G3 X-225.246 Y67.87 R3.435
 G1 X-225.618 Y69.446
 G3 X-226.76 Y70.099 R1.25
 G1 X-227.392 Y70.077
 G3 X-228.59 Y68.976 R1.25
 G1 X-228.668 Y68.326 Z3.1
 X-228.906 Y66.331 F9999.9
 X-228.984 Y65.681 Z3.0 F1000.0
 G3 X-227.737 Y64.283 R1.25
 G1 X-227.12 Y64.286
 G3 X-224.661 Y67.28 R3.191
 X-225.03 Y69.535 R3.441
 X-226.133 Y70.121 R1.25
 G1 X-226.76 Y70.099
 G3 X-227.957 Y69.003 R1.25
 G1 X-228.037 Y68.354 Z3.1
 X-228.286 Y66.339 F9999.9
 X-228.367 Y65.689 Z3.0 F1000.0
 G3 X-227.12 Y64.286 R1.25
 G1 X-226.397 Y64.289
 G3 X-223.987 Y68.103 R3.545
 G1 X-224.376 Y69.515
 G3 X-225.504 Y70.143 R1.25
 G1 X-226.133 Y70.121
 G3 X-227.334 Y68.989 R1.25
 G1 X-227.396 Y68.337 Z3.1
 X-227.586 Y66.308 F9999.9
 X-227.647 Y65.656 Z3.0 F1000.0
 G3 X-226.397 Y64.289 R1.25
 G1 X-225.788 Y64.292
 G3 X-223.352 Y68.07 R3.546
 G1 X-223.726 Y69.505
 G3 X-224.871 Y70.165 R1.25
 G1 X-225.504 Y70.143
 G3 X-226.704 Y69.017 R1.25
 G1 X-226.769 Y68.366 Z3.1
 X-226.973 Y66.318 F9999.9
 X-227.038 Y65.666 Z3.0 F1000.0
 G3 X-225.788 Y64.292 R1.25
 G1 X-225.171 Y64.295
 G3 X-222.72 Y68.042 R3.591
 G1 X-223.131 Y69.592
 G3 X-224.239 Y70.187 R1.25
 G1 X-224.871 Y70.165
 G3 X-226.071 Y69.044 R1.25
 G1 X-226.139 Y68.393 Z3.1
 X-226.353 Y66.325 F9999.9
 X-226.42 Y65.674 Z3.0 F1000.0
 G3 X-225.171 Y64.295 R1.25
 G1 X-224.569 Y64.298
 G3 X-222.094 Y67.678 R3.506
 X-222.463 Y69.558 R3.462
 X-223.604 Y70.209 R1.25
 G1 X-224.239 Y70.187
 G3 X-225.438 Y69.076 R1.25
 G1 X-225.511 Y68.426 Z3.1
 X-225.744 Y66.337 F9999.9
 X-225.817 Y65.687 Z3.0 F1000.0
 G3 X-224.569 Y64.298 R1.25
 G1 X-223.957 Y64.301
 G3 X-221.462 Y67.63 R3.491
 X-221.859 Y69.626 R3.439
 X-222.973 Y70.231 R1.25
 G1 X-223.604 Y70.209
 G3 X-224.802 Y69.106 R1.25
 G1 X-224.878 Y68.456 Z3.1
 X-225.128 Y66.348 F9999.9
 X-225.205 Y65.698 Z3.0 F1000.0
 G3 X-223.957 Y64.301 R1.25
 G1 X-223.336 Y64.304
 G3 X-220.828 Y67.603 R3.491
 X-221.207 Y69.617 R3.529
 X-222.339 Y70.253 R1.25
 G1 X-222.973 Y70.231
 G3 X-224.171 Y69.131 R1.25
 G1 X-224.249 Y68.481 Z3.1
 X-224.505 Y66.353 F9999.9
 X-224.583 Y65.703 Z3.0 F1000.0
 G3 X-223.336 Y64.304 R1.25
 G1 X-222.731 Y64.307
 G3 X-220.198 Y67.526 R3.454
 X-220.584 Y69.666 R3.519
 X-221.701 Y70.275 R1.25
 G1 X-222.339 Y70.253
 G3 X-223.536 Y69.162 R1.25
 G1 X-223.619 Y68.513 Z3.1
 X-223.894 Y66.365 F9999.9
 X-223.977 Y65.716 Z3.0 F1000.0
 G3 X-222.731 Y64.307 R1.25
 G1 X-222.055 Y64.31
 G3 X-219.538 Y67.912 R3.473
 X-219.923 Y69.645 R3.389
 X-221.065 Y70.297 R1.25
 G1 X-221.701 Y70.275
 G3 X-222.899 Y69.17 R1.25
 G1 X-222.975 Y68.52 Z3.1
 X-223.227 Y66.355 F9999.9
 X-223.303 Y65.705 Z3.0 F1000.0
 G3 X-222.055 Y64.31 R1.25
 G1 X-221.432 Y64.313
 G3 X-218.927 Y67.617 R3.473
 X-219.334 Y69.745 R3.439
 X-220.43 Y70.319 R1.25
 G1 X-221.065 Y70.297
 G3 X-222.263 Y69.196 R1.25
 G1 X-222.34 Y68.546 Z3.1
 X-222.601 Y66.361 F9999.9
 X-222.679 Y65.711 Z3.0 F1000.0
 G3 X-221.432 Y64.313 R1.25
 G1 X-220.826 Y64.316
 G3 X-218.268 Y67.808 R3.436
 X-218.654 Y69.686 R3.433
 X-219.797 Y70.341 R1.25
 G1 X-220.43 Y70.319
 G3 X-221.626 Y69.228 R1.25
 G1 X-221.709 Y68.578 Z3.1
 X-221.989 Y66.373 F9999.9
 X-222.072 Y65.724 Z3.0 F1000.0
 G3 X-220.826 Y64.316 R1.25
 G1 X-220.148 Y64.319
 G3 X-217.623 Y67.933 R3.525
 X-218.057 Y69.782 R3.433
 X-219.157 Y70.363 R1.25
 G1 X-219.797 Y70.341
 G3 X-220.996 Y69.233 R1.25
 G1 X-221.07 Y68.583 Z3.1
 X-221.322 Y66.36 F9999.9
 X-221.396 Y65.71 Z3.0 F1000.0
 G3 X-220.148 Y64.319 R1.25
 G1 X-219.552 Y64.322
 G3 X-216.987 Y67.838 R3.483
 X-217.559 Y70.003 R3.244
 X-218.865 Y70.425 R1.25
 G1 X-218.994 Y70.389
 G3 X-219.875 Y69.485 R1.25
 G1 X-219.912 Y69.337
 X-220.069 Y68.701 Z3.1
 X-220.613 Y66.508 F9999.9
 X-220.771 Y65.873 Z3.0 F1000.0
 G3 X-219.552 Y64.322 R1.25
 G1 X-218.883 Y64.325
 G3 X-216.359 Y67.63 R3.568
 X-216.992 Y70.154 R3.513
 X-218.351 Y70.566 R1.25
 G1 X-218.865 Y70.425
 G3 X-219.777 Y69.341 R1.25
 G1 X-219.841 Y68.69 Z3.1
 X-220.07 Y66.348 F9999.9
 X-220.133 Y65.697 Z3.0 F1000.0
 G3 X-218.883 Y64.325 R1.25
 G1 X-218.266 Y64.328
 G3 X-215.705 Y67.874 R3.58
 X-216.523 Y70.435 R3.483
 X-217.857 Y70.747 R1.25
 G1 X-218.351 Y70.566
 G3 X-219.167 Y69.506 R1.25
 G1 X-219.18 Y69.362
 X-219.24 Y68.71 Z3.1
 X-219.457 Y66.344 F9999.9
 X-219.517 Y65.692 Z3.0 F1000.0
 G3 X-218.266 Y64.328 R1.25
 G1 X-217.557 Y64.331
 G3 X-215.06 Y68.328 R3.752
 X-216.064 Y70.739 R3.437
 X-217.411 Y70.932 R1.25
 G1 X-217.605 Y70.843
 G3 X-218.322 Y69.853 R1.25
 G1 X-218.361 Y69.519
 X-218.437 Y68.869 Z3.1
 X-218.729 Y66.377 F9999.9
 X-218.805 Y65.726 Z3.0 F1000.0
 G3 X-217.557 Y64.331 R1.25
 G1 X-216.952 Y64.334
 G3 X-214.413 Y67.966 R3.655
 X-215.357 Y70.835 R3.882
 X-216.287 Y71.207 R1.25
 X-217.411 Y70.932 R1.577
 X-218.137 Y69.819 R1.25
 G1 X-218.141 Y69.583
 X-218.152 Y68.928 Z3.1
 X-218.196 Y66.26 F9999.9
 X-218.207 Y65.605 Z3.0 F1000.0
 G3 X-216.952 Y64.334 R1.25
 G1 X-216.319 Y64.337
 G3 X-213.768 Y67.955 R3.613
 X-214.463 Y70.68 R4.206
 X-215.539 Y71.231 R1.25
 G1 X-216.287 Y71.207
 G3 X-217.497 Y69.98 R1.25
 G1 X-217.5 Y69.813
 X-217.512 Y69.158 Z3.1
 X-217.563 Y66.264 F9999.9
 X-217.575 Y65.609 Z3.0 F1000.0
 G3 X-216.319 Y64.337 R1.25
 G1 X-215.723 Y64.34
 G3 X-213.154 Y67.541 R3.564
 X-213.728 Y70.673 R4.746
 X-214.823 Y71.253 R1.25
 G1 X-215.539 Y71.231
 G3 X-216.748 Y70.047 R1.25
 G1 X-216.782 Y69.393 Z3.1
 X-216.943 Y66.309 F9999.9
 X-216.978 Y65.655 Z3.0 F1000.0
 G3 X-215.723 Y64.34 R1.25
 G1 X-214.989 Y64.343
 G3 X-212.439 Y68.247 R3.858
 X-213.056 Y70.732 R4.343
 X-214.128 Y71.275 R1.25
 G1 X-214.823 Y71.253
 G3 X-216.032 Y70.064 R1.25
 G1 X-216.063 Y69.41 Z3.1
 X-216.212 Y66.307 F9999.9
 X-216.243 Y65.653 Z3.0 F1000.0
 G3 X-214.989 Y64.343 R1.25
 G1 X-214.369 Y64.346
 G3 X-211.789 Y67.972 R3.743
 X-212.37 Y70.759 R4.313
 X-213.438 Y71.297 R1.25
 G1 X-214.128 Y71.275
 G3 X-215.335 Y70.107 R1.25
 G1 X-215.378 Y69.454 Z3.1
 X-215.58 Y66.33 F9999.9
 X-215.622 Y65.677 Z3.0 F1000.0
 G3 X-214.369 Y64.346 R1.25
 G1 X-213.716 Y64.349
 G3 X-211.156 Y67.678 R3.657
 X-211.666 Y70.753 R4.64
 X-212.753 Y71.319 R1.25
 G1 X-213.438 Y71.297
 G3 X-214.645 Y70.139 R1.25
 G1 X-214.692 Y69.486 Z3.1
 X-214.921 Y66.343 F9999.9
 X-214.968 Y65.69 Z3.0 F1000.0
 G3 X-213.716 Y64.349 R1.25
 G1 X-213.108 Y64.352
 G3 X-210.504 Y67.594 R3.626
 X-210.993 Y70.794 R4.537
 X-212.067 Y71.341 R1.25
 G1 X-212.753 Y71.319
 G3 X-213.958 Y70.182 R1.25
 G1 X-214.017 Y69.53 Z3.1
 X-214.301 Y66.366 F9999.9
 X-214.359 Y65.714 Z3.0 F1000.0
 G3 X-213.108 Y64.352 R1.25
 G1 X-212.484 Y64.355
 G3 X-209.803 Y67.778 R3.734
 X-210.314 Y70.827 R4.627
 X-211.38 Y71.363 R1.25
 G1 X-212.067 Y71.341
 G3 X-213.271 Y70.22 R1.25
 G1 X-213.338 Y69.569 Z3.1
 X-213.666 Y66.384 F9999.9
 X-213.733 Y65.733 Z3.0 F1000.0
 G3 X-212.484 Y64.355 R1.25
 G1 X-211.889 Y64.358
 G3 X-209.222 Y67.311 R3.447
 X-209.635 Y70.855 R4.909
 X-210.696 Y71.384 R1.25
 G1 X-211.38 Y71.363
 G3 X-212.581 Y70.266 R1.25
 G1 X-212.661 Y69.616 Z3.1
 X-213.055 Y66.41 F9999.9
 X-213.135 Y65.761 Z3.0 F1000.0
 G3 X-211.889 Y64.358 R1.25
 G1 X-211.153 Y64.362
 G3 X-208.421 Y68.041 R3.909
 X-208.93 Y70.826 R4.453
 X-210.025 Y71.406 R1.25
 G1 X-210.696 Y71.384
 G3 X-211.899 Y70.273 R1.25
 G1 X-211.971 Y69.622 Z3.1
 X-212.329 Y66.4 F9999.9
 X-212.401 Y65.749 Z3.0 F1000.0
 G3 X-211.153 Y64.362 R1.25
 G1 X-210.463 Y64.365
 G3 X-207.775 Y67.817 R3.823
 X-208.263 Y70.874 R4.657
 X-209.341 Y71.428 R1.25
 G1 X-210.025 Y71.406
 G3 X-211.228 Y70.289 R1.25
 G1 X-211.298 Y69.638 Z3.1
 X-211.642 Y66.398 F9999.9
 X-211.711 Y65.747 Z3.0 F1000.0
 G3 X-210.463 Y64.365 R1.25
 G1 X-209.874 Y64.368
 G3 X-207.189 Y67.365 R3.545
 X-207.547 Y70.842 R4.974
 X-208.659 Y71.449 R1.25
 G1 X-209.341 Y71.428
 G3 X-210.541 Y70.336 R1.25
 G1 X-210.624 Y69.686 Z3.1
 X-211.038 Y66.424 F9999.9
 X-211.12 Y65.775 Z3.0 F1000.0
 G3 X-209.874 Y64.368 R1.25
 G1 X-209.142 Y64.371
 G3 X-206.458 Y67.616 R3.782
 X-206.883 Y70.88 R4.804
 X-207.985 Y71.471 R1.25
 G1 X-208.659 Y71.449
 G3 X-209.861 Y70.343 R1.25
 G1 X-209.936 Y69.693 Z3.1
 X-210.315 Y66.415 F9999.9
 X-210.39 Y65.764 Z3.0 F1000.0
 G3 X-209.142 Y64.371 R1.25
 G1 X-208.521 Y64.374
 G3 X-205.729 Y67.914 R3.871
 X-206.233 Y70.953 R4.632
 X-207.301 Y71.492 R1.25
 G1 X-207.985 Y71.471
 G3 X-209.185 Y70.378 R1.25
 G1 X-209.267 Y69.729 Z3.1
 X-209.685 Y66.43 F9999.9
 X-209.767 Y65.781 Z3.0 F1000.0
 G3 X-208.521 Y64.374 R1.25
 G1 X-207.82 Y64.377
 G3 X-205.039 Y67.989 R3.955
 X-205.522 Y70.929 R4.639
 X-206.621 Y71.514 R1.25
 G1 X-207.301 Y71.492
 G3 X-208.502 Y70.395 R1.25
 G1 X-208.582 Y69.745 Z3.1
 X-208.988 Y66.429 F9999.9
 X-209.067 Y65.779 Z3.0 F1000.0
 G3 X-207.82 Y64.377 R1.25
 G1 X-207.158 Y64.38
 G3 X-204.41 Y67.683 R3.779
 X-204.874 Y70.999 R4.817
 X-205.94 Y71.536 R1.25
 G1 X-206.621 Y71.514
 G3 X-207.821 Y70.421 R1.25
 G1 X-207.903 Y69.771 Z3.1
 X-208.322 Y66.436 F9999.9
 X-208.404 Y65.786 Z3.0 F1000.0
 G3 X-207.158 Y64.38 R1.25
 G1 X-206.437 Y64.384
 G3 X-203.711 Y67.797 R3.898
 X-204.185 Y70.999 R4.776
 X-205.266 Y71.557 R1.25
 G1 X-205.94 Y71.536
 G3 X-207.142 Y70.431 R1.25
 G1 X-207.218 Y69.781 Z3.1
 X-207.609 Y66.429 F9999.9
 X-207.684 Y65.779 Z3.0 F1000.0
 G3 X-206.437 Y64.384 R1.25
 G1 X-205.816 Y64.387
 G3 X-203.055 Y67.68 R3.807
 X-203.501 Y71.019 R4.912
 X-204.583 Y71.579 R1.25
 G1 X-205.266 Y71.557
 G3 X-206.466 Y70.466 R1.25
 G1 X-206.549 Y69.817 Z3.1
 X-206.979 Y66.444 F9999.9
 X-207.061 Y65.795 Z3.0 F1000.0
 G3 X-205.816 Y64.387 R1.25
 G1 X-205.103 Y64.39
 G3 X-202.364 Y67.746 R3.854
 X-202.837 Y71.066 R4.851
 X-203.902 Y71.6 R1.25
 G1 X-204.583 Y71.579
 G3 X-205.785 Y70.479 R1.25
 G1 X-205.863 Y69.829 Z3.1
 X-206.271 Y66.439 F9999.9
 X-206.349 Y65.79 Z3.0 F1000.0
 G3 X-205.103 Y64.39 R1.25
 G1 X-204.479 Y64.393
 G3 X-201.663 Y67.783 R3.892
 X-202.125 Y71.034 R4.707
 X-203.225 Y71.622 R1.25
 G1 X-203.902 Y71.6
 G3 X-205.101 Y70.515 R1.25
 G1 X-205.187 Y69.866 Z3.1
 X-205.638 Y66.456 F9999.9
 X-205.724 Y65.807 Z3.0 F1000.0
 G3 X-204.479 Y64.393 R1.25
 G1 X-203.824 Y64.396
 G3 X-201.014 Y67.588 R3.798
 X-201.459 Y71.084 R4.989
 X-202.541 Y71.644 R1.25
 G1 X-203.225 Y71.622
 G3 X-204.424 Y70.541 R1.25
 G1 X-204.513 Y69.893 Z3.1
 X-204.98 Y66.463 F9999.9
 X-205.068 Y65.815 Z3.0 F1000.0
 G3 X-203.824 Y64.396 R1.25
 G1 X-203.127 Y64.4
 G3 X-200.289 Y67.804 R3.82
 X-200.781 Y71.12 R4.952
 X-201.853 Y71.665 R1.25
 G1 X-202.541 Y71.644
 G3 X-203.74 Y70.559 R1.25
 G1 X-203.827 Y69.911 Z3.1
 X-204.286 Y66.463 F9999.9
 X-204.372 Y65.815 Z3.0 F1000.0
 G3 X-203.127 Y64.4 R1.25
 G1 X-202.373 Y64.403
 G3 X-199.622 Y67.745 R3.86
 G1 X-199.573 Y68.019
 G3 X-199.554 Y68.226 R1.25
 G1 X-199.547 Y68.858
 G3 X-200.102 Y71.149 R3.901
 X-201.17 Y71.687 R1.25
 G1 X-201.853 Y71.665
 G3 X-202.56 Y70.225 R0.908
 G1 X-202.176 Y69.695 Z3.1
 X-201.575 Y68.865 F9999.9
 X-201.191 Y68.335 Z3.0 F1000.0
 G3 X-199.547 Y68.858 R0.908
 G1 X-199.529 Y70.494
 X-199.608 Y70.981
 G3 X-200.632 Y71.704 R1.041
 G1 X-201.17 Y71.687
 G3 X-201.418 Y70.747 R0.507
 G1 X-201.306 Y70.679
 X-200.537 Y70.21
 X-200.3 Y70.066
 G3 X-199.529 Y70.494 R0.507
 G1 X-199.523 Y71.056
 X-199.693 Y71.526
 G3 X-200.105 Y71.721 R0.5
 G1 X-200.632 Y71.704
 G3 X-200.745 Y71.087 R0.321
 G1 X-199.968 Y70.763
 G3 X-199.523 Y71.056 R0.321
 X-200.105 Y71.721 R0.533
 X-201.192 Y71.013 R1.25
 G1 X-201.352 Y70.681
 X-201.635 Y70.091 Z3.1
 X-203.223 Y66.784 F9999.9
 X-203.506 Y66.194 Z3.0 F1000.0
 G3 X-202.373 Y64.403 R1.25
 G1 X-201.714 Y64.406
 G3 X-199.798 Y65.692 R2.603
 X-199.573 Y66.394 R1.25
 G1 X-199.554 Y68.226
 G3 X-200.442 Y69.314 R1.097
 X-201.672 Y68.637 R1.097
 G1 X-201.91 Y68.027 Z3.1
 X-202.502 Y66.512 F9999.9
 X-202.741 Y65.902 Z3.0 F1000.0
 G3 X-201.714 Y64.406 R1.097
 G1 X-201.013 Y64.41
 X-200.241 Y64.642
 G3 X-199.58 Y65.731 R1.25
 G1 X-199.573 Y66.394
 G3 X-200.711 Y66.716 R0.613
 G1 X-201.496 Y65.412
 X-201.54 Y65.338
 G3 X-201.548 Y64.72 R0.613
 X-201.013 Y64.41 R0.613
 G1 X-200.393 Y64.412
 X-199.885 Y64.575
 G3 X-199.587 Y65.087 R0.601
 G1 X-199.58 Y65.731
 G3 X-199.883 Y66.113 R0.387
 X-200.32 Y65.896 R0.387
 G1 X-200.747 Y64.961
 G3 X-200.393 Y64.412 R0.387
 X-199.587 Y65.087 R0.614
 X-199.748 Y65.714 R1.25
 G0 Z21.0
 X-246.216 Y53.992
 Z4.0
 G1 Z3.0
 G3 X-245.472 Y52.855 R1.25
 G1 X-245.198 Y52.77
 X-243.9 Y52.525
 G3 X-240.075 Y54.456 R4.104
 X-239.853 Y55.096 R1.25
 G1 X-239.786 Y56.225
 G3 X-240.83 Y57.532 R1.25
 G1 X-241.476 Y57.639 Z3.1
 X-260.53 Y60.778 F9999.9
 X-261.176 Y60.884 Z3.0 F1000.0
 G3 X-262.629 Y59.649 R1.25
 G1 X-262.627 Y58.438
 G3 X-261.335 Y56.008 R3.614
 X-260.728 Y55.707 R1.25
 G1 X-259.53 Y55.48
 G3 X-258.366 Y56.069 R1.071
 X-258.635 Y57.345 R1.071
 G1 X-259.131 Y57.771 Z3.1
 X-260.363 Y58.827 F9999.9
 X-260.86 Y59.252 Z3.0 F1000.0
 G3 X-262.005 Y59.412 R1.071
 X-262.627 Y58.438 R1.071
 G1 X-262.626 Y57.456
 X-262.37 Y56.505
 G3 X-261.492 Y55.851 R1.25
 G1 X-260.728 Y55.707
 G3 X-260.201 Y56.841 R0.645
 G1 X-261.573 Y57.957
 G3 X-262.626 Y57.456 R0.645
 X-261.492 Y55.851 R1.206
 G1 X-243.905 Y52.526
 X-242.869 Y52.33
 G3 X-240.259 Y53.297 R3.296
 X-239.888 Y54.492 R1.25
 X-241.272 Y55.157 R0.921
 G1 X-241.834 Y54.822 Z3.1
 X-242.608 Y54.36 F9999.9
 X-243.17 Y54.025 Z3.0 F1000.0
 G3 X-242.869 Y52.33 R0.921
 G1 X-242.082 Y52.181
 G3 X-240.098 Y52.748 R2.38
 X-239.749 Y54.008 R1.25
 G1 X-239.888 Y54.492
 G3 X-241.223 Y54.828 R0.796
 G1 X-242.503 Y53.521
 G3 X-242.082 Y52.181 R0.796
 G1 X-241.196 Y52.013
 X-240.243 Y52.17
 G3 X-239.703 Y53.878 R1.25
 X-240.719 Y54.015 R0.597
 G1 X-240.773 Y53.948
 X-241.464 Y53.082
 X-241.552 Y52.973
 G3 X-241.196 Y52.013 R0.597
 G1 X-240.63 Y51.906
 X-239.787 Y52.135
 G3 X-239.484 Y53.469 R1.041
 G1 X-239.578 Y53.645
 G3 X-240.478 Y53.635 R0.508
 G1 X-240.59 Y53.416
 X-240.823 Y52.961
 X-240.988 Y52.636
 G3 X-240.63 Y51.906 R0.508
 G1 X-240.206 Y51.826
 X-239.496 Y52.061
 G3 X-239.372 Y53.304 R0.866
 G1 X-239.435 Y53.378
 G3 X-240.163 Y53.267 R0.433
 G1 X-240.523 Y52.422
 G3 X-240.206 Y51.826 R0.433
 G1 X-239.887 Y51.766
 X-239.176 Y52.07
 G3 X-239.146 Y53.038 R0.721
 G1 X-239.276 Y53.191
 G3 X-239.941 Y53.054 R0.388
 G1 X-240.186 Y52.261
 G3 X-239.887 Y51.766 R0.388
 G1 X-239.619 Y51.715
 G3 X-238.89 Y52.087 R0.759
 X-239.021 Y52.9 R0.601
 X-239.554 Y52.81 R0.332
 G1 X-239.856 Y52.186
 G3 X-239.619 Y51.715 R0.332
 G1 X-239.361 Y51.667
 G3 X-238.657 Y52.104 R0.738
 X-238.797 Y52.728 R0.5
 G1 X-239.021 Y52.9
 G3 X-239.534 Y52.688 R0.32
 G1 X-239.619 Y52.022
 G3 X-239.361 Y51.667 R0.32
 G1 X-239.147 Y51.626
 G3 X-238.419 Y52.415 R0.722
 G1 X-238.458 Y52.467
 X-238.797 Y52.728
 G3 X-239.257 Y52.557 R0.289
 G1 X-239.376 Y51.968
 G3 X-239.147 Y51.626 R0.289
 G1 X-238.932 Y51.585
 X-238.386 Y51.834
 X-238.419 Y52.415
 G3 X-238.814 Y52.407 R0.244
 G1 X-239.118 Y51.968
 G3 X-238.932 Y51.585 R0.244
 G1 X-238.386 Y51.834
 G3 X-238.458 Y52.467 R0.518
 X-239.056 Y52.716 R1.25
 G0 Z21.0
 X-257.326 Y68.002
 Z4.0
 G1 Z3.0
 G3 X-258.304 Y68.965 R1.25
 G1 X-258.593 Y68.988
 X-259.696 Y68.949
 G3 X-262.399 Y67.163 R3.852
 X-262.63 Y66.441 R1.25
 G1 X-262.631 Y64.226
 G3 X-260.262 Y63.669 R1.25
 G1 X-259.97 Y64.255 Z3.1
 X-258.825 Y66.557 F9999.9
 X-258.533 Y67.143 Z3.0 F1000.0
 G3 X-259.696 Y68.949 R1.25
 G1 X-260.754 Y68.912
 G3 X-262.225 Y68.213 R2.673
 X-262.629 Y67.294 R1.25
 G1 X-262.63 Y66.441
 G3 X-261.208 Y66.011 R0.776
 G1 X-260.846 Y66.556 Z3.1
 X-260.443 Y67.163 F9999.9
 X-260.081 Y67.708 Z3.0 F1000.0
 G3 X-260.754 Y68.912 R0.776
 G1 X-261.493 Y68.886
 X-261.937 Y68.807
 G3 X-262.629 Y67.827 R1.041
 G1 Y67.294
 G3 X-261.721 Y67.042 R0.489
 G1 X-261.629 Y67.194
 X-261.211 Y67.888
 X-261.057 Y68.145
 G3 X-261.493 Y68.886 R0.489
 X-262.629 Y67.827 R0.967
 X-262.462 Y67.202 R1.25
 G0 Z21.0
 X-226.504 Y48.61
 G3 X-223.958 Z20.655 I1.273 J0.0 K0.689
 X-226.495 Z20.312 I-1.268 J0.0 K0.686
 X-223.967 Z19.97 I1.264 J0.0 K0.684
 X-226.485 Z19.63 I-1.259 J0.0 K0.681
 X-223.977 Z19.29 I1.254 J0.0 K0.679
 X-226.476 Z18.952 I-1.249 J0.0 K0.676
 X-223.986 Z18.615 I1.245 J0.0 K0.674
 X-226.467 Z18.28 I-1.24 J0.0 K0.671
 X-223.995 Z17.945 I1.236 J0.0 K0.669
 X-226.457 Z17.612 I-1.231 J0.0 K0.666
 X-224.004 Z17.28 I1.226 J0.0 K0.664
 X-226.448 Z16.95 I-1.222 J0.0 K0.661
 X-224.013 Z16.62 I1.217 J0.0 K0.659
 X-226.439 Z16.292 I-1.213 J0.0 K0.656
 X-224.023 Z15.965 I1.208 J0.0 K0.654
 X-226.43 Z15.639 I-1.203 J0.0 K0.651
 X-224.031 Z15.315 I1.199 J0.0 K0.649
 X-226.421 Z14.991 I-1.195 J0.0 K0.647
 X-224.04 Z14.669 I1.19 J0.0 K0.644
 X-226.412 Z14.348 I-1.186 J0.0 K0.642
 X-224.049 Z14.029 I1.181 J0.0 K0.639
 X-226.404 Z13.71 I-1.177 J0.0 K0.637
 X-224.058 Z13.393 I1.173 J0.0 K0.635
 X-226.395 Z13.077 I-1.168 J0.0 K0.632
 X-224.067 Z12.762 I1.164 J0.0 K0.63
 X-226.386 Z12.448 I-1.159 J0.0 K0.628
 X-224.075 Z12.135 I1.155 J0.0 K0.625
 X-226.378 Z11.824 I-1.151 J0.0 K0.623
 X-224.084 Z11.513 I1.147 J0.0 K0.621
 X-226.369 Z11.204 I-1.142 J0.0 K0.618
 X-224.092 Z10.896 I1.138 J0.0 K0.616
 X-226.361 Z10.589 I-1.134 J0.0 K0.614
 X-224.101 Z10.284 I1.13 J0.0 K0.611
 X-226.352 Z9.979 I-1.126 J0.0 K0.609
 X-224.109 Z9.676 I1.121 J0.0 K0.607
 X-226.344 Z9.373 I-1.118 J0.0 K0.605
 X-224.118 Z9.072 I1.113 J0.0 K0.602
 X-226.335 Z8.772 I-1.109 J0.0 K0.6
 X-224.126 Z8.473 I1.104 J0.0 K0.598
 X-226.327 Z8.175 I-1.101 J0.0 K0.596
 X-224.134 Z7.879 I1.096 J0.0 K0.593
 X-226.319 Z7.583 I-1.093 J0.0 K0.591
 X-224.142 Z7.289 I1.088 J0.0 K0.589
 X-226.311 Z6.995 I-1.085 J0.0 K0.587
 X-224.15 Z6.703 I1.08 J0.0 K0.585
 X-226.303 Z6.412 I-1.077 J0.0 K0.582
 X-224.158 Z6.122 I1.072 J0.0 K0.58
 X-226.295 Z5.832 I-1.069 J0.0 K0.578
 X-224.166 Z5.545 I1.064 J0.0 K0.576
 X-226.287 Z5.258 I-1.061 J0.0 K0.574
 X-224.174 Z4.972 I1.056 J0.0 K0.572
 X-226.279 Z4.687 I-1.053 J0.0 K0.57
 X-224.182 Z4.403 I1.048 J0.0 K0.567
 X-226.271 Z4.121 I-1.045 J0.0 K0.565
 X-224.19 Z3.839 I1.04 J0.0 K0.563
 X-226.263 Z3.558 I-1.037 J0.0 K0.561
 X-224.198 Z3.279 I1.032 J0.0 K0.559
 X-226.26 Z3.0 I-1.031 J0.0 K0.558
 I1.031 J0.0
 X-225.215 Y47.36 R1.153
 X-223.963 Y48.402 R1.153
 X-226.218 Y49.466 R1.299
 X-226.346 Y47.806 R1.25
 X-225.031 Y47.172 R1.396
 X-223.577 Y48.779 R1.43
 X-224.589 Y49.889 R1.25
 G1 X-225.179 Y50.001
 G3 X-226.733 Y49.379 R1.35
 X-226.663 Y48.221 R1.041
 G1 X-226.238 Y47.664
 G3 X-226.09 Y47.555 R0.328
 G1 X-225.075 Y47.185
 G3 X-225.023 Y47.171 R0.328
 G1 X-224.657 Y47.102
 G3 X-223.187 Y48.433 R1.46
 X-224.195 Y49.814 R1.25
 G1 X-224.588 Y49.889
 X-225.179 Y50.001
 X-225.836 Y50.125
 X-226.504 Y50.006
 G3 X-226.79 Y48.388 R1.041
 G1 X-226.663 Y48.221
 G3 X-225.752 Y48.389 R0.519
 G1 X-225.691 Y48.596
 X-225.556 Y49.054
 X-225.434 Y49.469
 G3 X-225.836 Y50.125 R0.519
 G1 X-226.227 Y50.199
 G3 X-227.169 Y49.72 R1.013
 X-227.015 Y48.582 R0.866
 G1 X-226.863 Y48.452
 G3 X-226.11 Y48.686 R0.465
 G1 X-226.02 Y49.026
 X-225.991 Y49.137
 X-225.864 Y49.625
 G3 X-226.227 Y50.199 R0.465
 G1 X-226.534 Y50.257
 G3 X-227.466 Y49.725 R0.978
 X-227.305 Y48.833 R0.721
 G1 X-227.015 Y48.582
 G3 X-226.298 Y48.857 R0.436
 G1 X-226.181 Y49.774
 G3 X-226.532 Y50.257 R0.436
 G1 X-226.842 Y50.316
 X-227.534 Y50.025
 G3 X-227.48 Y48.985 R0.721
 G1 X-227.305 Y48.833
 G3 X-226.668 Y49.062 R0.388
 G1 X-226.531 Y49.869
 G3 X-226.842 Y50.316 R0.388
 G1 X-227.105 Y50.366
 G3 X-227.88 Y49.882 R0.804
 X-227.629 Y49.097 R0.601
 G1 X-227.576 Y49.067
 G3 X-227.085 Y49.251 R0.345
 G1 X-226.845 Y49.908
 G3 X-227.105 Y50.366 R0.345
 G1 X-227.341 Y50.41
 G3 X-228.135 Y49.769 R0.78
 X-227.886 Y49.239 R0.5
 G1 X-227.629 Y49.097
 G3 X-227.132 Y49.36 R0.336
 G1 X-227.069 Y50.049
 G3 X-227.341 Y50.41 R0.336
 G1 X-227.551 Y50.45
 G3 X-228.301 Y49.941 R0.753
 X-228.071 Y49.341 R0.5
 G1 X-227.886 Y49.239
 G3 X-227.425 Y49.453 R0.314
 G1 X-227.301 Y50.081
 G3 X-227.551 Y50.45 R0.314
 G1 X-227.788 Y50.495
 G3 X-228.414 Y50.133 R0.679
 X-228.232 Y49.431 R0.5
 G1 X-228.071 Y49.341
 G3 X-227.632 Y49.56 R0.297
 G1 X-227.549 Y50.162
 G3 X-227.788 Y50.495 R0.297
 G1 X-227.985 Y50.532
 G3 X-228.642 Y49.679 R0.684
 G1 X-228.232 Y49.431
 G3 X-227.815 Y49.649 R0.282
 G1 X-227.757 Y50.227
 G3 X-227.985 Y50.532 R0.282
 G1 X-228.182 Y50.57
 X-228.246 Y50.574
 X-228.771 Y50.234
 X-228.642 Y49.679
 G3 X-228.249 Y49.756 R0.245
 G1 X-228.039 Y50.231
 G3 X-228.246 Y50.574 R0.245
 X-228.771 Y50.234 R0.509
 X-228.486 Y49.571 R0.52
 G1 X-227.576 Y49.067
 X-225.809 Y47.319
 X-224.657 Y47.102
 X-224.298 Y47.034
 G3 X-222.808 Y48.324 R1.465
 X-223.811 Y49.742 R1.25
 G1 X-224.195 Y49.814
 G3 X-225.016 Y49.055 R0.696
 G1 X-225.004 Y48.95
 X-224.918 Y48.169
 X-224.86 Y47.641
 G3 X-224.298 Y47.034 R0.696
 G1 X-223.886 Y46.956
 G3 X-222.436 Y48.187 R1.497
 X-223.428 Y49.669 R1.25
 G1 X-223.811 Y49.742
 G3 X-224.632 Y48.967 R0.697
 G1 X-224.62 Y48.877
 X-224.518 Y48.093
 X-224.448 Y47.551
 G3 X-223.886 Y46.956 R0.697
 G1 X-223.523 Y46.888
 G3 X-222.06 Y48.083 R1.486
 X-223.044 Y49.596 R1.25
 G1 X-223.428 Y49.669
 G3 X-224.248 Y48.906 R0.696
 G1 X-224.237 Y48.804
 X-224.146 Y48.023
 X-224.085 Y47.492
 G3 X-223.523 Y46.888 R0.696
 G1 X-223.167 Y46.821
 G3 X-221.665 Y48.078 R1.469
 X-222.663 Y49.524 R1.25
 G1 X-223.044 Y49.596
 G3 X-223.865 Y48.848 R0.695
 G1 X-223.854 Y48.732
 X-223.779 Y47.954
 X-223.729 Y47.437
 G3 X-223.167 Y46.821 R0.695
 G1 X-222.799 Y46.752
 G3 X-221.289 Y47.983 R1.464
 X-222.283 Y49.452 R1.25
 G1 X-222.663 Y49.524
 G3 X-223.484 Y48.782 R0.694
 G1 X-223.473 Y48.66
 X-223.406 Y47.884
 X-223.362 Y47.374
 G3 X-222.799 Y46.752 R0.694
 G1 X-222.378 Y46.672
 G3 X-220.915 Y47.866 R1.487
 X-221.9 Y49.379 R1.25
 G1 X-222.283 Y49.452
 G3 X-223.103 Y48.689 R0.695
 G1 X-223.091 Y48.587
 X-223.001 Y47.807
 X-222.94 Y47.276
 G3 X-222.378 Y46.672 R0.695
 G1 X-222.026 Y46.606
 G3 X-220.522 Y47.855 R1.466
 X-221.519 Y49.307 R1.25
 G1 X-221.9 Y49.379
 G3 X-222.72 Y48.633 R0.694
 G1 X-222.709 Y48.515
 X-222.636 Y47.739
 X-222.588 Y47.224
 G3 X-222.026 Y46.606 R0.694
 G1 X-221.601 Y46.526
 G3 X-220.147 Y47.746 R1.495
 X-221.136 Y49.235 R1.25
 G1 X-221.519 Y49.307
 G3 X-222.339 Y48.538 R0.696
 G1 X-222.327 Y48.443
 X-222.229 Y47.662
 X-222.162 Y47.123
 G3 X-221.601 Y46.526 R0.696
 G1 X-221.245 Y46.459
 G3 X-219.753 Y47.748 R1.477
 X-220.756 Y49.163 R1.25
 G1 X-221.136 Y49.235
 G3 X-221.956 Y48.479 R0.695
 G1 X-221.945 Y48.37
 X-221.862 Y47.593
 X-221.807 Y47.068
 G3 X-221.245 Y46.459 R0.695
 G1 X-220.839 Y46.382
 G3 X-219.385 Y47.598 R1.495
 X-220.374 Y49.09 R1.25
 G1 X-220.756 Y49.163
 G3 X-221.576 Y48.394 R0.695
 G1 X-221.564 Y48.298
 X-221.467 Y47.518
 X-221.4 Y46.98
 G3 X-220.839 Y46.382 R0.695
 G1 X-220.479 Y46.315
 G3 X-219.012 Y47.492 R1.471
 X-219.994 Y49.018 R1.25
 G1 X-220.374 Y49.09
 G3 X-221.193 Y48.333 R0.694
 G1 X-221.182 Y48.226
 X-221.098 Y47.449
 X-221.041 Y46.922
 G3 X-220.479 Y46.315 R0.694
 G1 X-220.127 Y46.248
 G3 X-218.619 Y47.479 R1.463
 X-219.614 Y48.946 R1.25
 G1 X-219.994 Y49.018
 G3 X-220.813 Y48.276 R0.693
 G1 X-220.803 Y48.154
 X-220.734 Y47.38
 X-220.689 Y46.869
 G3 X-220.127 Y46.248 R0.693
 G1 X-219.7 Y46.168
 G3 X-218.243 Y47.377 R1.49
 X-219.232 Y48.874 R1.25
 G1 X-219.614 Y48.946
 G3 X-220.433 Y48.18 R0.695
 G1 X-220.421 Y48.082
 X-220.327 Y47.303
 X-220.262 Y46.767
 G3 X-219.7 Y46.168 R0.695
 G1 X-219.345 Y46.101
 G3 X-217.849 Y47.379 R1.472
 X-218.851 Y48.802 R1.25
 G1 X-219.232 Y48.874
 G3 X-220.051 Y48.122 R0.694
 G1 X-220.039 Y48.009
 X-219.96 Y47.234
 X-219.906 Y46.712
 G3 X-219.345 Y46.101 R0.694
 G1 X-218.94 Y46.025
 G3 X-217.482 Y47.228 R1.489
 X-218.469 Y48.73 R1.25
 G1 X-218.851 Y48.802
 G3 X-219.671 Y48.036 R0.695
 G1 X-219.659 Y47.937
 X-219.565 Y47.16
 X-219.501 Y46.624
 G3 X-218.94 Y46.025 R0.695
 G1 X-218.579 Y45.957
 G3 X-217.087 Y47.24 R1.473
 X-218.09 Y48.658 R1.25
 G1 X-218.469 Y48.73
 G3 X-219.289 Y47.976 R0.694
 G1 X-219.277 Y47.865
 X-219.196 Y47.094
 X-219.141 Y46.566
 G3 X-218.579 Y45.957 R0.694
 G1 X-218.169 Y45.879
 G3 X-216.718 Y47.098 R1.493
 X-217.708 Y48.585 R1.25
 G1 X-218.09 Y48.658
 G3 X-218.908 Y47.888 R0.695
 G1 X-218.896 Y47.793
 X-218.798 Y47.016
 X-218.73 Y46.475
 G3 X-218.169 Y45.879 R0.695
 G1 X-217.804 Y45.811
 G3 X-216.343 Y47.003 R1.474
 X-217.328 Y48.513 R1.25
 G1 X-217.708 Y48.585
 G3 X-218.527 Y47.824 R0.694
 G1 X-218.515 Y47.72
 X-218.426 Y46.945
 X-218.365 Y46.414
 G3 X-217.804 Y45.811 R0.694
 G1 X-217.448 Y45.744
 G3 X-215.95 Y47.001 R1.468
 X-216.949 Y48.442 R1.25
 G1 X-217.328 Y48.513
 G3 X-218.147 Y47.765 R0.693
 G1 X-218.136 Y47.649
 X-218.061 Y46.877
 X-218.01 Y46.357
 G3 X-217.448 Y45.744 R0.693
 G1 X-217.045 Y45.668
 G3 X-215.585 Y46.859 R1.476
 X-216.57 Y48.37 R1.25
 G1 X-216.949 Y48.442
 G3 X-217.768 Y47.681 R0.694
 G1 X-217.756 Y47.577
 X-217.667 Y46.802
 X-217.606 Y46.27
 G3 X-217.045 Y45.668 R0.694
 G1 X-216.684 Y45.6
 G3 X-215.225 Y46.729 R1.425
 X-216.194 Y48.299 R1.25
 G1 X-216.57 Y48.37
 G3 X-217.389 Y47.618 R0.693
 G1 X-217.377 Y47.505
 X-217.298 Y46.733
 X-217.245 Y46.21
 G3 X-216.684 Y45.6 R0.693
 G1 X-216.275 Y45.522
 G3 X-214.823 Y46.731 R1.478
 X-215.812 Y48.226 R1.25
 G1 X-216.194 Y48.299
 G3 X-217.013 Y47.53 R0.694
 G1 X-217.0 Y47.433
 X-216.903 Y46.658
 X-216.835 Y46.118
 G3 X-216.275 Y45.522 R0.694
 G1 X-215.907 Y45.453
 G3 X-214.46 Y46.585 R1.434
 X-215.43 Y48.154 R1.25
 G1 X-215.812 Y48.226
 G3 X-216.63 Y47.466 R0.694
 G1 X-216.618 Y47.361
 X-216.529 Y46.588
 X-216.468 Y46.056
 G3 X-215.907 Y45.453 R0.694
 G1 X-215.493 Y45.375
 G3 X-214.074 Y46.531 R1.449
 X-215.049 Y48.082 R1.25
 G1 X-215.43 Y48.154
 G3 X-216.247 Y47.376 R0.695
 G1 X-216.235 Y47.289
 X-216.128 Y46.513
 X-216.052 Y45.963
 G3 X-215.493 Y45.375 R0.695
 G1 X-215.15 Y45.311
 G3 X-213.688 Y46.485 R1.465
 X-214.67 Y48.01 R1.25
 G1 X-215.049 Y48.082
 G3 X-215.867 Y47.324 R0.693
 G1 X-215.855 Y47.217
 X-215.769 Y46.445
 X-215.711 Y45.915
 G3 X-215.15 Y45.311 R0.693
 G1 X-214.788 Y45.242
 G3 X-213.291 Y46.501 R1.467
 X-214.291 Y47.938 R1.25
 G1 X-214.67 Y48.01
 G3 X-215.488 Y47.261 R0.692
 G1 X-215.476 Y47.145
 X-215.4 Y46.375
 X-215.349 Y45.855
 G3 X-214.788 Y45.242 R0.692
 G1 X-214.38 Y45.166
 G3 X-212.923 Y46.364 R1.483
 X-213.91 Y47.866 R1.25
 G1 X-214.291 Y47.938
 G3 X-215.109 Y47.174 R0.693
 G1 X-215.096 Y47.073
 X-215.004 Y46.301
 X-214.94 Y45.765
 G3 X-214.38 Y45.166 R0.693
 G1 X-213.988 Y45.092
 G3 X-212.537 Y46.315 R1.487
 X-213.529 Y47.794 R1.25
 G1 X-213.91 Y47.866
 G3 X-214.727 Y47.096 R0.694
 G1 X-214.715 Y47.0
 X-214.617 Y46.228
 X-214.548 Y45.686
 G3 X-213.988 Y45.092 R0.694
 G1 X-213.633 Y45.025
 G3 X-212.169 Y46.196 R1.463
 X-213.15 Y47.722 R1.25
 G1 X-213.529 Y47.794
 G3 X-214.346 Y47.038 R0.693
 G1 X-214.334 Y46.928
 X-214.251 Y46.159
 X-214.193 Y45.631
 G3 X-213.633 Y45.025 R0.693
 G1 X-213.235 Y44.95
 G3 X-211.78 Y46.155 R1.485
 X-212.769 Y47.65 R1.25
 G1 X-213.15 Y47.722
 G3 X-213.967 Y46.956 R0.693
 G1 X-213.955 Y46.856
 X-213.86 Y46.085
 X-213.795 Y45.547
 G3 X-213.235 Y44.95 R0.693
 G1 X-212.872 Y44.881
 G3 X-211.408 Y46.055 R1.464
 X-212.39 Y47.578 R1.25
 G1 X-212.769 Y47.65
 G3 X-213.586 Y46.894 R0.692
 G1 X-213.574 Y46.784
 X-213.49 Y46.015
 X-213.432 Y45.487
 G3 X-212.872 Y44.881 R0.692
 G1 X-212.466 Y44.805
 G3 X-211.018 Y46.025 R1.489
 X-212.009 Y47.506 R1.25
 G1 X-212.39 Y47.578
 G3 X-213.207 Y46.808 R0.693
 G1 X-213.195 Y46.712
 X-213.096 Y45.941
 X-213.026 Y45.398
 G3 X-212.466 Y44.805 R0.693
 G1 X-212.136 Y44.743
 G3 X-210.633 Y45.987 R1.456
 X-211.631 Y47.434 R1.25
 G1 X-212.009 Y47.506
 G3 X-212.827 Y46.762 R0.691
 G1 X-212.815 Y46.641
 X-212.744 Y45.875
 X-212.696 Y45.358
 G3 X-212.136 Y44.743 R0.691
 G1 X-211.72 Y44.664
 G3 X-210.263 Y45.86 R1.479
 X-211.25 Y47.362 R1.25
 G1 X-211.631 Y47.434
 G3 X-212.447 Y46.671 R0.693
 G1 X-212.435 Y46.569
 X-212.343 Y45.799
 X-212.279 Y45.263
 G3 X-211.72 Y44.664 R0.693
 G1 X-211.326 Y44.59
 G3 X-209.877 Y45.814 R1.484
 X-210.869 Y47.29 R1.25
 G1 X-211.25 Y47.362
 G3 X-212.066 Y46.593 R0.693
 G1 X-212.054 Y46.496
 X-211.955 Y45.726
 X-211.885 Y45.183
 G3 X-211.326 Y44.59 R0.693
 G1 X-210.962 Y44.522
 G3 X-209.502 Y45.71 R1.474
 X-210.488 Y47.217 R1.25
 G1 X-210.869 Y47.29
 G3 X-211.686 Y46.529 R0.692
 G1 X-211.674 Y46.424
 X-211.584 Y45.656
 X-211.522 Y45.122
 G3 X-210.962 Y44.522 R0.692
 G1 X-210.617 Y44.457
 G3 X-209.113 Y45.691 R1.451
 X-210.109 Y47.146 R1.25
 G1 X-210.488 Y47.217
 G3 X-211.305 Y46.476 R0.691
 G1 X-211.293 Y46.352
 X-211.224 Y45.589
 X-211.178 Y45.073
 G3 X-210.617 Y44.457 R0.691
 G1 X-210.182 Y44.375
 G3 X-208.736 Y45.602 R1.487
 X-209.729 Y47.074 R1.25
 G1 X-210.109 Y47.146
 G3 X-210.925 Y46.375 R0.693
 G1 X-210.913 Y46.28
 X-210.812 Y45.511
 X-210.741 Y44.966
 G3 X-210.182 Y44.375 R0.693
 G1 X-209.829 Y44.308
 G3 X-208.368 Y45.484 R1.462
 X-209.351 Y47.002 R1.25
 G1 X-209.729 Y47.074
 G3 X-210.545 Y46.317 R0.692
 G1 X-210.533 Y46.208
 X-210.448 Y45.45
 X-210.388 Y44.911
 G3 X-209.829 Y44.308 R0.692
 G1 X-209.442 Y44.235
 G3 X-207.984 Y45.425 R1.477
 X-208.97 Y46.93 R1.25
 G1 X-209.351 Y47.002
 G3 X-210.167 Y46.241 R0.692
 G1 X-210.154 Y46.132
 X-210.065 Y45.37
 X-210.002 Y44.835
 G3 X-209.442 Y44.235 R0.692
 G1 X-209.033 Y44.158
 G3 X-207.593 Y45.406 R1.491
 X-208.59 Y46.858 R1.25
 G1 X-208.97 Y46.93
 G3 X-209.786 Y46.154 R0.693
 G1 X-209.773 Y46.058
 X-209.667 Y45.295
 X-209.591 Y44.744
 G3 X-209.033 Y44.158 R0.693
 G1 X-208.695 Y44.095
 G3 X-207.231 Y45.259 R1.458
 X-208.212 Y46.786 R1.25
 G1 X-208.59 Y46.858
 G3 X-209.406 Y46.104 R0.691
 G1 X-209.394 Y45.989
 X-209.312 Y45.228
 X-209.254 Y44.7
 G3 X-208.695 Y44.095 R0.691
 G1 X-208.278 Y44.016
 G3 X-206.837 Y45.251 R1.49
 X-207.832 Y46.714 R1.25
 G1 X-208.212 Y46.786
 G3 X-209.028 Y46.012 R0.693
 G1 X-209.015 Y45.92
 X-208.911 Y45.153
 X-208.836 Y44.604
 G3 X-208.278 Y44.016 R0.693
 G1 X-207.927 Y43.95
 G3 X-206.469 Y45.136 R1.464
 X-207.455 Y46.643 R1.25
 G1 X-207.832 Y46.714
 G3 X-208.648 Y45.955 R0.692
 G1 X-208.636 Y45.848
 X-208.547 Y45.084
 X-208.486 Y44.55
 G3 X-207.927 Y43.95 R0.692
 G1 X-207.555 Y43.88
 G3 X-206.094 Y45.056 R1.462
 X-207.078 Y46.571 R1.25
 G1 X-207.455 Y46.643
 G3 X-208.27 Y45.887 R0.691
 G1 X-208.258 Y45.777
 X-208.173 Y45.014
 X-208.114 Y44.482
 G3 X-207.555 Y43.88 R0.691
 G1 X-207.177 Y43.808
 G3 X-205.716 Y44.986 R1.464
 X-206.701 Y46.5 R1.25
 G1 X-207.078 Y46.571
 G3 X-207.893 Y45.815 R0.691
 G1 X-207.881 Y45.705
 X-207.795 Y44.943
 X-207.735 Y44.41
 G3 X-207.177 Y43.808 R0.691
 G1 X-206.79 Y43.736
 G3 X-205.337 Y44.908 R1.46
 X-206.32 Y46.428 R1.25
 G1 X-206.701 Y46.5
 G3 X-207.516 Y45.739 R0.691
 G1 X-207.503 Y45.634
 X-207.413 Y44.871
 X-207.349 Y44.334
 G3 X-206.79 Y43.736 R0.691
 G1 X-206.413 Y43.665
 G3 X-204.957 Y44.852 R1.468
 X-205.944 Y46.356 R1.25
 G1 X-206.32 Y46.428
 G3 X-207.135 Y45.669 R0.691
 G1 X-207.123 Y45.561
 X-207.034 Y44.799
 X-206.972 Y44.264
 G3 X-206.413 Y43.665 R0.691
 G1 X-206.06 Y43.598
 G3 X-204.59 Y44.739 R1.452
 X-205.566 Y46.285 R1.25
 G1 X-205.944 Y46.356
 G3 X-206.759 Y45.61 R0.69
 G1 X-206.747 Y45.49
 X-206.671 Y44.731
 X-206.619 Y44.208
 G3 X-206.06 Y43.598 R0.69
 G1 X-205.677 Y43.526
 G3 X-204.21 Y44.679 R1.455
 X-205.189 Y46.214 R1.25
 G1 X-205.566 Y46.285
 G3 X-206.381 Y45.535 R0.69
 G1 X-206.369 Y45.419
 X-206.291 Y44.664
 X-206.236 Y44.133
 G3 X-205.677 Y43.526 R0.69
 G1 X-205.282 Y43.452
 G3 X-203.826 Y44.638 R1.466
 X-204.813 Y46.142 R1.25
 G1 X-205.189 Y46.214
 G3 X-206.004 Y45.455 R0.691
 G1 X-205.992 Y45.347
 X-205.903 Y44.586
 X-205.84 Y44.05
 G3 X-205.282 Y43.452 R0.691
 G1 X-204.905 Y43.38
 G3 X-203.462 Y44.509 R1.43
 X-204.434 Y46.071 R1.25
 G1 X-204.813 Y46.142
 G3 X-205.627 Y45.383 R0.691
 G1 X-205.615 Y45.276
 X-205.526 Y44.517
 X-205.463 Y43.979
 G3 X-204.905 Y43.38 R0.691
 G1 X-204.528 Y43.309
 G3 X-203.063 Y44.522 R1.469
 X-204.056 Y45.999 R1.25
 G1 X-204.434 Y46.071
 G3 X-205.248 Y45.303 R0.691
 G1 X-205.235 Y45.204
 X-205.137 Y44.448
 X-205.065 Y43.895
 G3 X-204.528 Y43.309 R0.691
 G1 X-204.179 Y43.233
 G3 X-202.707 Y44.349 R1.425
 X-203.675 Y45.927 R1.25
 G1 X-204.056 Y45.999
 G3 X-204.872 Y45.244 R0.692
 G1 X-204.86 Y45.133
 X-204.778 Y44.374
 X-204.72 Y43.835
 G3 X-204.179 Y43.233 R0.692
 G1 X-203.97 Y43.188
 X-203.657 Y43.156
 G3 X-202.319 Y44.315 R1.5
 X-203.297 Y45.855 R1.25
 G1 X-203.675 Y45.927
 G3 X-204.488 Y45.141 R0.693
 G1 X-204.476 Y45.059
 X-204.358 Y44.295
 X-204.273 Y43.74
 G3 X-203.657 Y43.156 R0.693
 G1 X-203.403 Y43.131
 X-203.146 Y43.135
 G3 X-201.954 Y44.231 R1.451
 X-202.928 Y45.785 R1.25
 G1 X-203.297 Y45.855
 G3 X-204.092 Y45.056 R0.681
 G1 X-204.078 Y44.984
 X-203.927 Y44.203
 X-203.826 Y43.687
 G3 X-203.146 Y43.135 R0.681
 G1 X-202.616 Y43.206
 G3 X-201.589 Y44.672 R1.613
 X-202.436 Y45.692 R1.041
 G1 X-202.928 Y45.785
 G3 X-203.624 Y44.845 R0.65
 G1 X-202.988 Y43.302
 G3 X-202.616 Y43.206 R0.25
 G1 X-201.87 Y43.743
 X-201.778 Y43.785
 G3 X-201.293 Y44.758 R1.139
 X-201.998 Y45.609 R0.866
 G1 X-202.436 Y45.692
 G3 X-202.968 Y44.946 R0.504
 G1 X-202.858 Y44.754
 X-202.659 Y44.407
 X-202.423 Y43.994
 G3 X-201.778 Y43.785 R0.504
 G1 X-201.537 Y43.894
 G3 X-201.029 Y44.824 R0.992
 X-201.616 Y45.537 R0.721
 G1 X-201.998 Y45.609
 G3 X-202.491 Y45.003 R0.444
 G1 X-202.13 Y44.129
 G3 X-201.537 Y43.894 R0.444
 G1 X-201.235 Y44.03
 X-200.796 Y44.684
 G3 X-201.377 Y45.491 R0.721
 G1 X-201.616 Y45.537
 G3 X-202.051 Y45.017 R0.389
 G1 X-201.759 Y44.246
 G3 X-201.235 Y44.03 R0.389
 G1 X-201.135 Y44.075
 X-201.049 Y44.095
 G3 X-200.581 Y44.88 R0.786
 X-201.068 Y45.433 R0.601
 G1 X-201.377 Y45.491
 G3 X-201.77 Y44.991 R0.359
 G1 X-201.457 Y44.297
 G3 X-201.049 Y44.095 R0.359
 G1 X-200.841 Y44.143
 G3 X-200.381 Y44.943 R0.765
 X-200.785 Y45.379 R0.5
 G1 X-201.068 Y45.433
 G3 X-201.44 Y45.008 R0.327
 G1 X-201.226 Y44.359
 G3 X-200.841 Y44.143 R0.327
 G1 X-200.647 Y44.188
 G3 X-200.312 Y45.289 R0.74
 G1 X-200.785 Y45.379
 G3 X-201.134 Y45.023 R0.3
 G1 X-201.008 Y44.418
 G3 X-200.647 Y44.188 R0.3
 G1 X-200.433 Y44.237
 G3 X-199.997 Y45.091 R0.756
 G1 X-200.312 Y45.289
 G3 X-200.654 Y45.085 R0.265
 G1 X-200.753 Y44.542
 G3 X-200.433 Y44.237 R0.265
 X-199.997 Y45.091 R0.534
 G1 X-200.074 Y45.175
 X-200.187 Y45.248
 G3 X-200.833 Y45.283 R1.25
 G0 Z21.0
 X-114.829 Y69.452
 G3 X-119.295 Z20.386 I-2.233 J0.0 K1.227
 X-114.846 Z19.775 I2.224 J0.0 K1.223
 X-119.279 Z19.166 I-2.216 J0.0 K1.218
 X-114.862 Z18.559 I2.209 J0.0 K1.214
 X-119.262 Z17.954 I-2.2 J0.0 K1.209
 X-114.879 Z17.352 I2.192 J0.0 K1.205
 X-119.246 Z16.752 I-2.183 J0.0 K1.2
 X-114.895 Z16.154 I2.176 J0.0 K1.196
 X-119.23 Z15.558 I-2.167 J0.0 K1.191
 X-114.911 Z14.965 I2.16 J0.0 K1.187
 X-119.213 Z14.374 I-2.151 J0.0 K1.182
 X-114.927 Z13.784 I2.143 J0.0 K1.178
 X-119.197 Z13.198 I-2.135 J0.0 K1.174
 X-114.943 Z12.613 I2.127 J0.0 K1.169
 X-119.182 Z12.031 I-2.119 J0.0 K1.165
 X-114.959 Z11.45 I2.112 J0.0 K1.161
 X-119.166 Z10.872 I-2.103 J0.0 K1.156
 X-114.975 Z10.296 I2.096 J0.0 K1.152
 X-119.15 Z9.722 I-2.087 J0.0 K1.148
 X-114.99 Z9.151 I2.08 J0.0 K1.143
 X-119.135 Z8.581 I-2.073 J0.0 K1.139
 X-115.006 Z8.014 I2.065 J0.0 K1.135
 X-119.119 Z7.448 I-2.057 J0.0 K1.131
 X-115.021 Z6.885 I2.049 J0.0 K1.126
 X-119.104 Z6.324 I-2.042 J0.0 K1.122
 X-115.036 Z5.765 I2.034 J0.0 K1.118
 X-119.089 Z5.208 I-2.027 J0.0 K1.114
 X-115.051 Z4.653 I2.019 J0.0 K1.11
 X-119.074 Z4.1 I-2.012 J0.0 K1.106
 X-115.066 Z3.55 I2.004 J0.0 K1.101
 X-119.066 Z3.0 I-2.0 J0.0 K1.099
 I2.0 J0.0
 X-117.427 Y67.129 R2.153
 X-114.913 Y68.455 R2.153
 X-116.034 Y71.576 R2.39
 X-119.195 Y70.574 R2.39
 X-118.466 Y66.997 R2.639
 X-114.86 Y67.572 R2.639
 X-119.181 Y71.466 R2.91
 X-119.337 Y66.998 R3.192
 X-114.874 Y66.755 R3.192
 X-114.351 Y71.624 R3.487
 X-119.214 Y72.212 R3.487
 X-114.889 Y66.001 R3.785
 X-113.548 Y71.553 R4.097
 X-119.061 Y73.05 R4.097
 X-117.14 Y64.767 R4.389
 G1 X-117.058 Y64.764
 X-116.856
 G3 X-112.416 Y68.534 R4.657
 X-112.386 Y68.793 R1.25
 G1 X-112.376 Y69.705
 G3 X-116.349 Y74.135 R4.675
 X-116.604 Y74.154 R1.25
 G1 X-117.552 Y74.127
 G3 X-119.881 Y65.004 R5.0
 X-119.146 Y64.765 R1.25
 G1 X-116.463 Y64.764
 G3 X-112.642 Y66.415 R3.766
 X-112.404 Y67.134 R1.25
 G1 X-112.377 Y69.611
 X-112.376 Y69.705
 X-112.361 Y71.092
 G3 X-114.165 Y73.964 R3.798
 X-114.935 Y74.202 R1.25
 G1 X-116.604 Y74.154
 X-117.552 Y74.127
 X-119.047 Y74.084
 G3 X-122.352 Y67.036 R5.107
 X-121.093 Y65.13 R5.496
 X-120.21 Y64.765 R1.25
 G1 X-119.146
 X-115.637 Y64.764
 X-114.399
 G3 X-112.934 Y65.318 R2.534
 X-112.413 Y66.319 R1.25
 G1 X-112.404 Y67.134
 G3 X-112.927 Y67.875 R0.774
 X-113.795 Y67.611 R0.774
 G1 X-114.191 Y67.09 Z3.1
 X-114.619 Y66.528 F9999.9
 X-115.015 Y66.007 Z3.0 F1000.0
 G3 X-114.399 Y64.764 R0.774
 G1 X-113.549
 X-113.213 Y64.806
 G3 X-112.419 Y65.805 R1.041
 G1 X-112.413 Y66.319
 G3 X-113.307 Y66.574 R0.482
 G1 X-113.413 Y66.399
 X-113.798 Y65.764
 X-113.961 Y65.495
 G3 X-113.549 Y64.764 R0.482
 X-112.419 Y65.805 R0.923
 G1 X-112.361 Y71.092
 X-112.35 Y72.054
 G3 X-113.093 Y73.788 R2.656
 X-114.08 Y74.227 R1.25
 G1 X-114.935 Y74.202
 G3 X-115.712 Y73.618 R0.84
 X-115.417 Y72.691 R0.84
 G1 X-114.895 Y72.297 Z3.1
 X-114.219 Y71.787 F9999.9
 X-113.696 Y71.393 Z3.0 F1000.0
 G3 X-112.35 Y72.054 R0.84
 G1 X-112.341 Y72.897
 X-112.371 Y73.227
 G3 X-113.634 Y74.239 R1.25
 G1 X-114.08 Y74.227
 G3 X-114.591 Y73.829 R0.547
 X-114.366 Y73.223 R0.547
 G1 X-114.357 Y73.217
 X-113.351 Y72.552
 X-113.19 Y72.446
 G3 X-112.341 Y72.897 R0.547
 X-113.634 Y74.239 R1.081
 G1 X-119.047 Y74.084
 X-120.034 Y74.055
 G3 X-123.432 Y69.635 R4.681
 X-122.082 Y65.212 R6.303
 X-121.125 Y64.765 R1.25
 G1 X-120.21
 G3 X-118.961 Y65.976 R1.25
 G1 X-118.94 Y66.63 Z3.1
 X-118.769 Y72.113 F9999.9
 X-118.748 Y72.767 Z3.0 F1000.0
 G3 X-120.034 Y74.055 R1.25
 G1 X-120.897 Y74.031
 G3 X-124.111 Y69.873 R4.527
 X-122.988 Y65.28 R6.724
 X-121.978 Y64.765 R1.25
 G1 X-121.125
 G3 X-119.876 Y65.967 R1.25
 G1 X-119.851 Y66.621 Z3.1
 X-119.638 Y72.078 F9999.9
 X-119.612 Y72.732 Z3.0 F1000.0
 G3 X-120.897 Y74.031 R1.25
 G1 X-121.639 Y74.009
 G3 X-124.608 Y70.902 R4.05
 X-123.778 Y65.241 R6.912
 X-122.797 Y64.766 R1.25
 G1 X-121.978 Y64.765
 G3 X-120.729 Y65.946 R1.25
 G1 X-120.693 Y66.6 Z3.1
 X-120.392 Y72.037 F9999.9
 X-120.355 Y72.69 Z3.0 F1000.0
 G3 X-121.639 Y74.009 R1.25
 G1 X-122.51 Y73.984
 G3 X-125.536 Y69.902 R4.52
 X-124.627 Y65.301 R6.958
 X-123.601 Y64.766 R1.25
 G1 X-122.797
 G3 X-121.548 Y65.956 R1.25
 G1 X-121.517 Y66.609 Z3.1
 X-121.257 Y72.021 F9999.9
 X-121.226 Y72.675 Z3.0 F1000.0
 G3 X-122.51 Y73.984 R1.25
 G1 X-123.133 Y73.966
 G3 X-126.055 Y70.842 R4.008
 X-125.392 Y65.275 R7.066
 X-124.386 Y64.766 R1.25
 G1 X-123.601
 G3 X-122.354 Y65.922 R1.25
 G1 X-122.305 Y66.575 Z3.1
 X-121.9 Y71.97 F9999.9
 X-121.851 Y72.623 Z3.0 F1000.0
 G3 X-123.133 Y73.966 R1.25
 G1 X-123.871 Y73.945
 G3 X-126.714 Y71.041 R3.901
 X-126.171 Y65.272 R7.085
 X-125.167 Y64.766 R1.25
 G1 X-124.386
 G3 X-123.14 Y65.913 R1.25
 G1 X-123.086 Y66.566 Z3.1
 X-122.643 Y71.941 F9999.9
 X-122.59 Y72.593 Z3.0 F1000.0
 G3 X-123.871 Y73.945 R1.25
 G1 X-124.613 Y73.924
 G3 X-127.471 Y70.937 R3.98
 X-126.942 Y65.265 R7.048
 X-125.943 Y64.766 R1.25
 G1 X-125.167
 G3 X-123.922 Y65.906 R1.25
 G1 X-123.864 Y66.558 Z3.1
 X-123.39 Y71.912 F9999.9
 X-123.332 Y72.564 Z3.0 F1000.0
 G3 X-124.613 Y73.924 R1.25
 G1 X-125.359 Y73.902
 G3 X-128.293 Y70.631 R4.242
 X-127.74 Y65.306 R6.935
 X-126.712 Y64.767 R1.25
 G1 X-125.943 Y64.766
 G3 X-124.698 Y65.9 R1.25
 G1 X-124.637 Y66.552 Z3.1
 X-124.14 Y71.885 F9999.9
 X-124.079 Y72.537 Z3.0 F1000.0
 G3 X-125.359 Y73.902 R1.25
 G1 X-126.093 Y73.881
 G3 X-129.033 Y70.603 R4.275
 X-128.5 Y65.299 R6.868
 X-127.477 Y64.767 R1.25
 G1 X-126.712
 G3 X-125.468 Y65.893 R1.25
 G1 X-125.403 Y66.545 Z3.1
 X-124.878 Y71.857 F9999.9
 X-124.813 Y72.509 Z3.0 F1000.0
 G3 X-126.093 Y73.881 R1.25
 G1 X-126.831 Y73.86
 G3 X-129.697 Y70.824 R4.145
 X-129.258 Y65.303 R6.887
 X-128.232 Y64.767 R1.25
 G1 X-127.477
 G3 X-126.233 Y65.888 R1.25
 G1 X-126.166 Y66.539 Z3.1
 X-125.619 Y71.831 F9999.9
 X-125.552 Y72.482 Z3.0 F1000.0
 G3 X-126.831 Y73.86 R1.25
 G1 X-127.573 Y73.839
 G3 X-130.589 Y70.29 R4.524
 X-130.035 Y65.346 R6.766
 X-128.981 Y64.767 R1.25
 G1 X-128.232
 G3 X-126.989 Y65.885 R1.25
 G1 X-126.92 Y66.536 Z3.1
 X-126.363 Y71.807 F9999.9
 X-126.294 Y72.458 Z3.0 F1000.0
 G3 X-127.573 Y73.839 R1.25
 G1 X-128.32 Y73.817
 G3 X-131.263 Y70.517 R4.399
 X-130.79 Y65.347 R6.71
 X-129.736 Y64.767 R1.25
 G1 X-128.981
 G3 X-127.738 Y65.885 R1.25
 G1 X-127.669 Y66.536 Z3.1
 X-127.11 Y71.785 F9999.9
 X-127.041 Y72.435 Z3.0 F1000.0
 G3 X-128.32 Y73.817 R1.25
 G1 X-128.992 Y73.798
 G3 X-132.03 Y70.42 R4.371
 X-131.511 Y65.308 R6.58
 X-130.481 Y64.767 R1.25
 G1 X-129.736
 G3 X-128.494 Y65.869 R1.25
 G1 X-128.417 Y66.519 Z3.1
 X-127.793 Y71.75 F9999.9
 X-127.715 Y72.4 Z3.0 F1000.0
 G3 X-128.992 Y73.798 R1.25
 G1 X-129.731 Y73.776
 G3 X-132.706 Y70.626 R4.244
 X-132.245 Y65.27 R6.672
 X-131.244 Y64.768 R1.25
 G1 X-130.481 Y64.767
 G3 X-129.24 Y65.868 R1.25
 G1 X-129.162 Y66.517 Z3.1
 X-128.533 Y71.727 F9999.9
 X-128.454 Y72.377 Z3.0 F1000.0
 G3 X-129.731 Y73.776 R1.25
 G1 X-130.475 Y73.755
 G3 X-133.52 Y70.367 R4.403
 X-133.048 Y65.346 R6.567
 X-131.994 Y64.768 R1.25
 G1 X-131.244
 G3 X-130.003 Y65.864 R1.25
 G1 X-129.922 Y66.513 Z3.1
 X-129.279 Y71.702 F9999.9
 X-129.198 Y72.352 Z3.0 F1000.0
 G3 X-130.475 Y73.755 R1.25
 G1 X-131.223 Y73.734
 G3 X-134.269 Y70.333 R4.412
 X-133.783 Y65.329 R6.532
 X-132.741 Y64.768 R1.25
 G1 X-131.994
 G3 X-130.754 Y65.863 R1.25
 G1 X-130.673 Y66.512 Z3.1
 X-130.027 Y71.68 F9999.9
 X-129.946 Y72.329 Z3.0 F1000.0
 G3 X-131.223 Y73.734 R1.25
 G1 X-131.957 Y73.712
 G3 X-135.001 Y70.358 R4.365
 X-134.55 Y65.357 R6.576
 X-133.49 Y64.768 R1.25
 G1 X-132.741
 G3 X-131.5 Y65.86 R1.25
 G1 X-131.418 Y66.51 Z3.1
 X-130.763 Y71.656 F9999.9
 X-130.681 Y72.305 Z3.0 F1000.0
 G3 X-131.957 Y73.712 R1.25
 G1 X-132.695 Y73.691
 G3 X-135.592 Y70.805 R4.036
 X-135.284 Y65.339 R6.727
 X-134.235 Y64.768 R1.25
 G1 X-133.49
 G3 X-132.25 Y65.858 R1.25
 G1 X-132.166 Y66.507 Z3.1
 X-131.504 Y71.632 F9999.9
 X-131.42 Y72.281 Z3.0 F1000.0
 G3 X-132.695 Y73.691 R1.25
 G1 X-133.439 Y73.67
 G3 X-136.419 Y70.54 R4.226
 X-136.015 Y65.314 R6.6
 X-134.982 Y64.768 R1.25
 G1 X-134.235
 G3 X-132.995 Y65.857 R1.25
 G1 X-132.911 Y66.506 Z3.1
 X-132.248 Y71.61 F9999.9
 X-132.163 Y72.259 Z3.0 F1000.0
 G3 X-133.439 Y73.67 R1.25
 G1 X-134.187 Y73.648
 G3 X-137.235 Y70.272 R4.386
 X-136.748 Y65.305 R6.373
 X-135.722 Y64.769 R1.25
 G1 X-134.982 Y64.768
 G3 X-133.742 Y65.857 R1.25
 G1 X-133.658 Y66.506 Z3.1
 X-132.996 Y71.588 F9999.9
 X-132.912 Y72.237 Z3.0 F1000.0
 G3 X-134.187 Y73.648 R1.25
 G1 X-134.921 Y73.627
 G3 X-137.972 Y70.271 R4.357
 X-137.488 Y65.305 R6.36
 X-136.462 Y64.769 R1.25
 G1 X-135.722
 G3 X-134.483 Y65.855 R1.25
 G1 X-134.397 Y66.504 Z3.1
 X-133.731 Y71.566 F9999.9
 X-133.646 Y72.215 Z3.0 F1000.0
 G3 X-134.921 Y73.627 R1.25
 G1 X-135.659 Y73.606
 G3 X-138.711 Y70.261 R4.345
 X-138.224 Y65.3 R6.336
 X-137.201 Y64.769 R1.25
 G1 X-136.462
 G3 X-135.223 Y65.855 R1.25
 G1 X-135.137 Y66.504 Z3.1
 X-134.47 Y71.544 F9999.9
 X-134.384 Y72.193 Z3.0 F1000.0
 G3 X-135.659 Y73.606 R1.25
 G1 X-136.403 Y73.585
 G3 X-139.383 Y70.466 R4.205
 X-139.001 Y65.353 R6.486
 X-137.944 Y64.769 R1.25
 G1 X-137.201
 G3 X-135.962 Y65.855 R1.25
 G1 X-135.876 Y66.504 Z3.1
 X-135.214 Y71.523 F9999.9
 X-135.128 Y72.171 Z3.0 F1000.0
 G3 X-136.403 Y73.585 R1.25
 G1 X-137.152 Y73.563
 G3 X-140.198 Y70.194 R4.362
 X-139.737 Y65.342 R6.495
 X-138.687 Y64.769 R1.25
 G1 X-137.944
 G3 X-136.704 Y65.856 R1.25
 G1 X-136.619 Y66.505 Z3.1
 X-135.962 Y71.502 F9999.9
 X-135.877 Y72.151 Z3.0 F1000.0
 G3 X-137.152 Y73.563 R1.25
 G1 X-137.885 Y73.542
 G3 X-140.847 Y70.483 R4.091
 X-140.476 Y65.329 R6.463
 X-139.434 Y64.769 R1.25
 G1 X-138.687
 G3 X-137.448 Y65.854 R1.25
 G1 X-137.361 Y66.503 Z3.1
 X-136.697 Y71.478 F9999.9
 X-136.61 Y72.127 Z3.0 F1000.0
 G3 X-137.885 Y73.542 R1.25
 G1 X-138.623 Y73.521
 G3 X-141.509 Y70.688 R3.951
 X-141.189 Y65.296 R6.479
 X-140.17 Y64.77 R1.25
 G1 X-139.434 Y64.769
 G3 X-138.195 Y65.852 R1.25
 G1 X-138.108 Y66.5 Z3.1
 X-137.436 Y71.455 F9999.9
 X-137.349 Y72.103 Z3.0 F1000.0
 G3 X-138.623 Y73.521 R1.25
 G1 X-139.367 Y73.499
 G3 X-142.341 Y70.396 R4.157
 X-141.95 Y65.319 R6.397
 X-140.915 Y64.77 R1.25
 G1 X-140.17
 G3 X-138.931 Y65.853 R1.25
 G1 X-138.843 Y66.502 Z3.1
 X-138.18 Y71.434 F9999.9
 X-138.092 Y72.083 Z3.0 F1000.0
 G3 X-139.367 Y73.499 R1.25
 G1 X-140.094 Y73.478
 G3 X-142.982 Y70.655 R3.954
 X-142.717 Y65.359 R6.535
 X-141.657 Y64.77 R1.25
 G1 X-140.915
 G3 X-139.677 Y65.849 R1.25
 G1 X-139.587 Y66.497 Z3.1
 X-138.909 Y71.41 F9999.9
 X-138.82 Y72.058 Z3.0 F1000.0
 G3 X-140.094 Y73.478 R1.25
 G1 X-140.951 Y73.454
 G3 X-144.047 Y69.405 R4.678
 X-143.439 Y65.343 R5.903
 X-142.389 Y64.77 R1.25
 G1 X-141.657
 G3 X-140.415 Y65.871 R1.25
 G1 X-140.337 Y66.521 Z3.1
 X-139.752 Y71.406 F9999.9
 X-139.674 Y72.056 Z3.0 F1000.0
 G3 X-140.951 Y73.454 R1.25
 G1 X-141.689 Y73.433
 G3 X-144.784 Y69.394 R4.655
 X-144.169 Y65.338 R5.889
 X-143.122 Y64.77 R1.25
 G1 X-142.389
 G3 X-141.147 Y65.872 R1.25
 G1 X-141.07 Y66.522 Z3.1
 X-140.489 Y71.385 F9999.9
 X-140.412 Y72.035 Z3.0 F1000.0
 G3 X-141.689 Y73.433 R1.25
 G1 X-142.307 Y73.415
 G3 X-145.203 Y70.572 R3.947
 X-144.884 Y65.293 R6.379
 X-143.868 Y64.77 R1.25
 G1 X-143.122
 G3 X-141.883 Y65.849 R1.25
 G1 X-141.794 Y66.497 Z3.1
 X-141.123 Y71.346 F9999.9
 X-141.033 Y71.994 Z3.0 F1000.0
 G3 X-142.307 Y73.415 R1.25
 G1 X-143.154 Y73.39
 G3 X-146.262 Y69.296 R4.665
 X-145.647 Y65.338 R6.05
 X-144.601 Y64.771 R1.25
 G1 X-143.868 Y64.77
 G3 X-142.627 Y65.868 R1.25
 G1 X-142.547 Y66.518 Z3.1
 X-141.957 Y71.339 F9999.9
 X-141.877 Y71.989 Z3.0 F1000.0
 G3 X-143.154 Y73.39 R1.25
 G1 X-143.883 Y73.369
 G3 X-146.817 Y70.085 R4.308
 X-146.404 Y65.363 R6.369
 X-145.342 Y64.771 R1.25
 G1 X-144.601
 G3 X-143.36 Y65.867 R1.25
 G1 X-143.279 Y66.517 Z3.1
 X-142.686 Y71.317 F9999.9
 X-142.606 Y71.967 Z3.0 F1000.0
 G3 X-143.883 Y73.369 R1.25
 G1 X-144.618 Y73.348
 G3 X-147.619 Y69.811 R4.459
 X-147.126 Y65.347 R6.167
 X-146.073 Y64.771 R1.25
 G1 X-145.342
 G3 X-144.101 Y65.866 R1.25
 G1 X-144.02 Y66.515 Z3.1
 X-143.423 Y71.294 F9999.9
 X-143.342 Y71.944 Z3.0 F1000.0
 G3 X-144.618 Y73.348 R1.25
 G1 X-145.361 Y73.327
 G3 X-148.465 Y69.229 R4.635
 X-147.831 Y65.301 R6.038
 X-146.809 Y64.771 R1.25
 G1 X-146.073
 G3 X-144.832 Y65.868 R1.25
 G1 X-144.752 Y66.517 Z3.1
 X-144.165 Y71.275 F9999.9
 X-144.085 Y71.924 Z3.0 F1000.0
 G3 X-145.361 Y73.327 R1.25
 G1 X-146.082 Y73.306
 G3 X-149.02 Y70.011 R4.302
 X-148.574 Y65.315 R6.217
 X-147.543 Y64.771 R1.25
 G1 X-146.809
 G3 X-145.569 Y65.864 R1.25
 G1 X-145.487 Y66.514 Z3.1
 X-144.888 Y71.251 F9999.9
 X-144.806 Y71.9 Z3.0 F1000.0
 G3 X-146.082 Y73.306 R1.25
 G1 X-146.811 Y73.285
 G3 X-149.751 Y70.0 R4.279
 X-149.303 Y65.31 R6.204
 X-148.275 Y64.771 R1.25
 G1 X-147.543
 G3 X-146.303 Y65.863 R1.25
 G1 X-146.22 Y66.512 Z3.1
 X-145.618 Y71.228 F9999.9
 X-145.535 Y71.877 Z3.0 F1000.0
 G3 X-146.811 Y73.285 R1.25
 G1 X-147.547 Y73.264
 G3 X-150.484 Y69.972 R4.282
 X-150.073 Y65.373 R6.22
 X-149.005 Y64.772 R1.25
 G1 X-148.275 Y64.771
 G3 X-147.035 Y65.863 R1.25
 G1 X-146.952 Y66.513 Z3.1
 X-146.354 Y71.207 F9999.9
 X-146.271 Y71.857 Z3.0 F1000.0
 G3 X-147.547 Y73.264 R1.25
 G1 X-148.291 Y73.243
 G3 X-151.278 Y69.71 R4.414
 X-150.76 Y65.3 R6.008
 X-149.74 Y64.772 R1.25
 G1 X-149.005
 G3 X-147.765 Y65.866 R1.25
 G1 X-147.683 Y66.515 Z3.1
 X-147.097 Y71.188 F9999.9
 X-147.015 Y71.837 Z3.0 F1000.0
 G3 X-148.291 Y73.243 R1.25
 G1 X-149.011 Y73.222
 G3 X-151.945 Y69.938 R4.252
 X-151.525 Y65.357 R6.116
 X-150.467 Y64.772 R1.25
 G1 X-149.74
 G3 X-148.5 Y65.863 R1.25
 G1 X-148.417 Y66.512 Z3.1
 X-147.819 Y71.164 F9999.9
 X-147.735 Y71.813 Z3.0 F1000.0
 G3 X-149.011 Y73.222 R1.25
 G1 X-149.739 Y73.201
 G3 X-152.675 Y69.92 R4.245
 X-152.243 Y65.349 R6.083
 X-151.19 Y64.772 R1.25
 G1 X-150.467
 G3 X-149.227 Y65.862 R1.25
 G1 X-149.143 Y66.512 Z3.1
 X-148.547 Y71.143 F9999.9
 X-148.464 Y71.792 Z3.0 F1000.0
 G3 X-149.739 Y73.201 R1.25
 G1 X-150.476 Y73.18
 G3 X-153.408 Y69.885 R4.257
 X-152.958 Y65.322 R6.078
 X-151.923 Y64.772 R1.25
 G1 X-151.19
 G3 X-149.95 Y65.865 R1.25
 G1 X-149.867 Y66.514 Z3.1
 X-149.282 Y71.124 F9999.9
 X-149.2 Y71.773 Z3.0 F1000.0
 G3 X-150.476 Y73.18 R1.25
 G1 X-151.222 Y73.158
 G3 X-154.141 Y69.852 R4.253
 X-153.679 Y65.309 R6.074
 X-152.652 Y64.772 R1.25
 G1 X-151.923
 G3 X-150.683 Y65.867 R1.25
 G1 X-150.601 Y66.516 Z3.1
 X-150.027 Y71.104 F9999.9
 X-149.946 Y71.754 Z3.0 F1000.0
 G3 X-151.222 Y73.158 R1.25
 G1 X-151.94 Y73.138
 G3 X-154.925 Y69.596 R4.375
 X-154.408 Y65.304 R5.939
 X-153.385 Y64.773 R1.25
 G1 X-152.652 Y64.772
 G3 X-151.412 Y65.864 R1.25
 G1 X-151.329 Y66.514 Z3.1
 X-150.747 Y71.081 F9999.9
 X-150.664 Y71.73 Z3.0 F1000.0
 G3 X-151.94 Y73.138 R1.25
 G1 X-152.667 Y73.117
 G3 X-155.591 Y69.815 R4.229
 X-155.17 Y65.364 R6.035
 X-154.108 Y64.773 R1.25
 G1 X-153.385
 G3 X-152.145 Y65.863 R1.25
 G1 X-152.061 Y66.512 Z3.1
 X-151.475 Y71.058 F9999.9
 X-151.392 Y71.708 Z3.0 F1000.0
 G3 X-152.667 Y73.117 R1.25
 G1 X-153.405 Y73.096
 G3 X-156.32 Y69.793 R4.216
 X-155.891 Y65.36 R6.026
 X-154.831 Y64.773 R1.25
 G1 X-154.108
 G3 X-152.868 Y65.865 R1.25
 G1 X-152.786 Y66.515 Z3.1
 X-152.211 Y71.039 F9999.9
 X-152.129 Y71.689 Z3.0 F1000.0
 G3 X-153.405 Y73.096 R1.25
 G1 X-154.153 Y73.074
 G3 X-157.117 Y69.467 R4.415
 X-156.58 Y65.307 R5.775
 X-155.556 Y64.773 R1.25
 G1 X-154.831
 G3 X-153.59 Y65.87 R1.25
 G1 X-153.511 Y66.52 Z3.1
 X-152.957 Y71.022 F9999.9
 X-152.877 Y71.672 Z3.0 F1000.0
 G3 X-154.153 Y73.074 R1.25
 G1 X-154.869 Y73.053
 G3 X-157.779 Y69.708 R4.246
 X-157.354 Y65.378 R5.958
 X-156.284 Y64.773 R1.25
 G1 X-155.556
 G3 X-154.315 Y65.868 R1.25
 G1 X-154.234 Y66.517 Z3.1
 X-153.674 Y70.999 F9999.9
 X-153.592 Y71.649 Z3.0 F1000.0
 G3 X-154.869 Y73.053 R1.25
 G1 X-155.595 Y73.033
 G3 X-158.562 Y69.439 R4.384
 X-158.075 Y65.378 R5.729
 X-157.005 Y64.773 R1.25
 G1 X-156.284
 G3 X-155.043 Y65.867 R1.25
 G1 X-154.962 Y66.517 Z3.1
 X-154.401 Y70.978 F9999.9
 X-154.319 Y71.627 Z3.0 F1000.0
 G3 X-155.595 Y73.033 R1.25
 G1 X-156.334 Y73.011
 G3 X-159.377 Y68.915 R4.495
 X-158.758 Y65.314 R5.596
 X-157.729 Y64.774 R1.25
 G1 X-157.005 Y64.773
 G3 X-155.764 Y65.871 R1.25
 G1 X-155.684 Y66.52 Z3.1
 X-155.137 Y70.959 F9999.9
 X-155.057 Y71.609 Z3.0 F1000.0
 G3 X-156.334 Y73.011 R1.25
 G1 X-157.035 Y72.991
 G3 X-159.94 Y69.697 R4.154
 X-159.479 Y65.306 R5.859
 X-158.456 Y64.774 R1.25
 G1 X-157.729
 G3 X-156.489 Y65.865 R1.25
 G1 X-156.406 Y66.515 Z3.1
 X-155.842 Y70.934 F9999.9
 X-155.76 Y71.584 Z3.0 F1000.0
 G3 X-157.035 Y72.991 R1.25
 G1 X-157.75 Y72.971
 G3 X-160.659 Y69.699 R4.128
 X-160.21 Y65.312 R5.856
 X-159.183 Y64.774 R1.25
 G1 X-158.456
 G3 X-157.217 Y65.862 R1.25
 G1 X-157.132 Y66.511 Z3.1
 X-156.559 Y70.911 F9999.9
 X-156.474 Y71.56 Z3.0 F1000.0
 G3 X-157.75 Y72.971 R1.25
 G1 X-158.478 Y72.95
 G3 X-161.388 Y69.647 R4.159
 X-160.966 Y65.351 R5.869
 X-159.913 Y64.774 R1.25
 G1 X-159.183
 G3 X-157.943 Y65.862 R1.25
 G1 X-157.858 Y66.511 Z3.1
 X-157.287 Y70.889 F9999.9
 X-157.202 Y71.538 Z3.0 F1000.0
 G3 X-158.478 Y72.95 R1.25
 G1 X-159.221 Y72.928
 G3 X-162.122 Y69.574 R4.213
 X-161.711 Y65.385 R5.85
 X-160.637 Y64.774 R1.25
 G1 X-159.913
 G3 X-158.673 Y65.865 R1.25
 G1 X-158.59 Y66.514 Z3.1
 X-158.029 Y70.87 F9999.9
 X-157.945 Y71.519 Z3.0 F1000.0
 G3 X-159.221 Y72.928 R1.25
 G1 X-159.918 Y72.908
 G3 X-162.758 Y69.857 R3.998
 X-162.402 Y65.34 R5.905
 X-161.356 Y64.774 R1.25
 G1 X-160.637
 G3 X-159.398 Y65.858 R1.25
 G1 X-159.311 Y66.507 Z3.1
 X-158.73 Y70.844 F9999.9
 X-158.643 Y71.493 Z3.0 F1000.0
 G3 X-159.918 Y72.908 R1.25
 G1 X-160.63 Y72.888
 G3 X-163.474 Y69.858 R3.97
 X-163.121 Y65.342 R5.932
 X-162.074 Y64.775 R1.25
 G1 X-161.356 Y64.774
 G3 X-160.117 Y65.856 R1.25
 G1 X-160.029 Y66.505 Z3.1
 X-159.443 Y70.822 F9999.9
 X-159.355 Y71.47 Z3.0 F1000.0
 G3 X-160.63 Y72.888 R1.25
 G1 X-161.36 Y72.867
 G3 X-164.268 Y69.56 R4.156
 X-163.868 Y65.384 R5.805
 X-162.795 Y64.775 R1.25
 G1 X-162.074
 G3 X-160.835 Y65.859 R1.25
 G1 X-160.748 Y66.507 Z3.1
 X-160.172 Y70.803 F9999.9
 X-160.086 Y71.451 Z3.0 F1000.0
 G3 X-161.36 Y72.867 R1.25
 G1 X-162.036 Y72.847
 G3 X-164.96 Y69.642 R4.055
 X-164.573 Y65.372 R5.779
 X-163.508 Y64.775 R1.25
 G1 X-162.795
 G3 X-161.557 Y65.848 R1.25
 G1 X-161.465 Y66.496 Z3.1
 X-160.855 Y70.773 F9999.9
 X-160.763 Y71.421 Z3.0 F1000.0
 G3 X-162.036 Y72.847 R1.25
 G1 X-162.846 Y72.824
 G3 X-165.783 Y69.166 R4.376
 X-165.299 Y65.384 R5.66
 X-164.226 Y64.775 R1.25
 G1 X-163.508
 G3 X-162.267 Y65.869 R1.25
 G1 X-162.186 Y66.518 Z3.1
 X-161.651 Y70.769 F9999.9
 X-161.57 Y71.419 Z3.0 F1000.0
 G3 X-162.846 Y72.824 R1.25
 G1 X-163.551 Y72.804
 G3 X-166.495 Y69.176 R4.339
 X-166.022 Y65.392 R5.659
 X-164.945 Y64.775 R1.25
 G1 X-164.226
 G3 X-162.986 Y65.866 R1.25
 G1 X-162.903 Y66.515 Z3.1
 X-162.359 Y70.746 F9999.9
 X-162.275 Y71.395 Z3.0 F1000.0
 G3 X-163.551 Y72.804 R1.25
 G1 X-164.282 Y72.783
 G3 X-167.155 Y69.418 R4.161
 X-166.686 Y65.314 R5.523
 X-165.658 Y64.775 R1.25
 G1 X-164.945
 G3 X-163.704 Y65.868 R1.25
 G1 X-163.622 Y66.517 Z3.1
 X-163.088 Y70.727 F9999.9
 X-163.006 Y71.376 Z3.0 F1000.0
 G3 X-164.282 Y72.783 R1.25
 G1 X-164.934 Y72.764
 G3 X-167.88 Y69.39 R4.077
 X-167.417 Y65.336 R5.589
 X-166.375 Y64.776 R1.25
 G1 X-165.658 Y64.775
 G3 X-164.42 Y65.854 R1.25
 G1 X-164.33 Y66.502 Z3.1
 X-163.749 Y70.695 F9999.9
 X-163.66 Y71.343 Z3.0 F1000.0
 G3 X-164.934 Y72.764 R1.25
 G1 X-165.726 Y72.741
 G3 X-168.534 Y69.603 R3.999
 X-168.141 Y65.341 R5.713
 X-167.095 Y64.776 R1.25
 G1 X-166.375
 G3 X-165.134 Y65.87 R1.25
 G1 X-165.053 Y66.52 Z3.1
 X-164.531 Y70.687 F9999.9
 X-164.45 Y71.337 Z3.0 F1000.0
 G3 X-165.726 Y72.741 R1.25
 G1 X-166.422 Y72.721
 G3 X-169.354 Y69.137 R4.238
 X-168.879 Y65.381 R5.644
 X-167.808 Y64.776 R1.25
 G1 X-167.095
 G3 X-165.856 Y65.864 R1.25
 G1 X-165.771 Y66.514 Z3.1
 X-165.231 Y70.661 F9999.9
 X-165.147 Y71.31 Z3.0 F1000.0
 G3 X-166.422 Y72.721 R1.25
 G1 X-167.162 Y72.7
 G3 X-170.03 Y69.286 R4.168
 X-169.6 Y65.382 R5.527
 X-168.529 Y64.776 R1.25
 G1 X-167.808
 G3 X-166.568 Y65.87 R1.25
 G1 X-166.486 Y66.519 Z3.1
 X-165.968 Y70.645 F9999.9
 X-165.886 Y71.295 Z3.0 F1000.0
 G3 X-167.162 Y72.7 R1.25
 G1 X-167.863 Y72.68
 G3 X-170.731 Y69.328 R4.095
 X-170.291 Y65.348 R5.49
 X-169.242 Y64.776 R1.25
 G1 X-168.529
 G3 X-167.289 Y65.865 R1.25
 G1 X-167.205 Y66.514 Z3.1
 X-166.672 Y70.62 F9999.9
 X-166.588 Y71.269 Z3.0 F1000.0
 G3 X-167.863 Y72.68 R1.25
 G1 X-168.594 Y72.659
 G3 X-171.004 Y70.553 R3.395
 X-171.126 Y70.025 R1.25
 G1 X-171.152 Y66.44
 X-170.921 Y65.453
 G3 X-169.81 Y64.776 R1.25
 G1 X-169.242
 G3 X-168.644 Y65.199 R0.633
 X-168.845 Y65.904 R0.633
 G1 X-170.122 Y66.93
 G3 X-171.152 Y66.44 R0.633
 X-170.335 Y64.777 R1.267
 G1 X-169.81 Y64.776
 G3 X-168.592 Y65.743 R1.25
 G1 X-168.583 Y65.782
 X-168.435 Y66.42 Z3.1
 X-167.489 Y70.489 F9999.9
 X-167.34 Y71.126 Z3.0 F1000.0
 G3 X-168.594 Y72.659 R1.25
 G1 X-169.259 Y72.64
 G3 X-170.703 Y71.942 R2.262
 X-171.118 Y71.021 R1.25
 G1 X-171.126 Y70.025
 G3 X-170.539 Y69.246 R0.803
 X-169.633 Y69.607 R0.803
 G1 X-169.297 Y70.169 Z3.1
 X-168.882 Y70.863 F9999.9
 X-168.547 Y71.425 Z3.0 F1000.0
 G3 X-169.259 Y72.64 R0.803
 G1 X-169.952 Y72.62
 X-170.408 Y72.542
 G3 X-171.114 Y71.564 R1.041
 G1 X-171.118 Y71.021
 G3 X-170.761 Y70.542 R0.495
 X-170.203 Y70.757 R0.495
 G1 X-170.119 Y70.892
 X-169.664 Y71.628
 X-169.517 Y71.865
 G3 X-169.952 Y72.62 R0.495
 X-171.114 Y71.564 R0.996
 X-170.951 Y70.938 R1.25
 G0 Z21.0
 X-118.693 Y29.975
 G3 X-122.766 Z20.452 I-2.037 J0.0 K1.095
 X-118.708 Z19.907 I2.029 J0.0 K1.091
 X-122.751 Z19.363 I-2.022 J0.0 K1.087
 X-118.724 Z18.822 I2.014 J0.0 K1.083
 X-122.736 Z18.282 I-2.006 J0.0 K1.079
 X-118.738 Z17.745 I1.999 J0.0 K1.075
 X-122.721 Z17.21 I-1.992 J0.0 K1.071
 X-118.753 Z16.676 I1.984 J0.0 K1.067
 X-122.706 Z16.145 I-1.977 J0.0 K1.063
 X-118.768 Z15.615 I1.969 J0.0 K1.059
 X-122.691 Z15.088 I-1.962 J0.0 K1.055
 X-118.783 Z14.562 I1.954 J0.0 K1.051
 X-122.677 Z14.039 I-1.947 J0.0 K1.047
 X-118.797 Z13.517 I1.94 J0.0 K1.043
 X-122.662 Z12.997 I-1.933 J0.0 K1.039
 X-118.812 Z12.48 I1.925 J0.0 K1.035
 X-122.648 Z11.964 I-1.918 J0.0 K1.032
 X-118.826 Z11.45 I1.911 J0.0 K1.028
 X-122.634 Z10.938 I-1.904 J0.0 K1.024
 X-118.84 Z10.428 I1.897 J0.0 K1.02
 X-122.62 Z9.92 I-1.89 J0.0 K1.016
 X-118.854 Z9.413 I1.883 J0.0 K1.013
 X-122.605 Z8.909 I-1.876 J0.0 K1.009
 X-118.868 Z8.406 I1.868 J0.0 K1.005
 X-122.592 Z7.906 I-1.862 J0.0 K1.001
 X-118.882 Z7.407 I1.855 J0.0 K0.998
 X-122.578 Z6.91 I-1.848 J0.0 K0.994
 X-118.896 Z6.415 I1.841 J0.0 K0.99
 X-122.564 Z5.922 I-1.834 J0.0 K0.986
 X-118.909 Z5.43 I1.827 J0.0 K0.983
 X-122.55 Z4.941 I-1.821 J0.0 K0.979
 X-118.923 Z4.453 I1.813 J0.0 K0.975
 X-122.537 Z3.967 I-1.807 J0.0 K0.972
 X-118.937 Z3.483 I1.8 J0.0 K0.968
 X-122.53 Z3.0 I-1.796 J0.0 K0.966
 I1.797 J0.0
 X-119.694 Y28.101 R1.864
 X-119.544 Y28.192 R1.25
 X-119.981 Y31.988 R2.145
 X-120.221 Y32.058 R1.25
 G1 X-120.32 Y32.076
 G3 X-122.878 Y28.723 R2.422
 X-121.981 Y28.031 R1.25
 X-119.816 Y27.999 R2.519
 G1 X-119.186 Y28.447
 X-119.032 Y28.515
 G3 X-118.451 Y31.273 R2.009
 X-119.311 Y31.889 R1.25
 G1 X-121.067 Y32.216
 G3 X-123.533 Y29.067 R2.488
 X-122.552 Y28.139 R1.25
 G1 X-121.714 Y27.98
 G3 X-121.443 Y27.984 R0.684
 G1 X-119.163 Y28.473
 G3 X-119.032 Y28.515 R0.684
 G1 X-118.547 Y28.727
 G3 X-117.762 Y30.756 R1.879
 X-118.767 Y31.787 R1.25
 G1 X-119.311 Y31.889
 X-121.067 Y32.216
 X-121.796 Y32.351
 G3 X-124.08 Y29.161 R2.586
 X-123.101 Y28.243 R1.25
 G1 X-122.552 Y28.139
 G3 X-122.211 Y28.133 R1.012
 G1 X-118.8 Y28.654
 G3 X-118.547 Y28.727 R1.012
 G1 X-118.478 Y28.757
 X-118.289 Y28.796
 G3 X-117.283 Y30.506 R1.711
 X-118.303 Y31.701 R1.25
 G1 X-118.767 Y31.787
 G3 X-119.63 Y30.82 R0.757
 G1 X-119.23 Y29.52
 X-119.167 Y29.315
 G3 X-118.289 Y28.796 R0.757
 G1 X-117.934 Y28.87
 G3 X-116.874 Y30.359 R1.574
 X-117.894 Y31.624 R1.25
 G1 X-118.303 Y31.701
 G3 X-119.127 Y30.827 R0.714
 G1 X-118.844 Y29.688
 X-118.772 Y29.397
 G3 X-117.934 Y28.87 R0.714
 G1 X-117.721 Y28.914
 X-117.625
 G3 X-116.533 Y30.029 R1.372
 X-117.518 Y31.554 R1.25
 G1 X-117.894 Y31.624
 G3 X-118.673 Y30.765 R0.681
 G1 X-118.669 Y30.752
 X-118.392 Y29.799
 X-118.277 Y29.404
 G3 X-117.625 Y28.914 R0.681
 G1 X-117.287 Y28.913
 G3 X-116.201 Y29.864 R1.36
 X-117.158 Y31.487 R1.25
 G1 X-117.518 Y31.554
 G3 X-118.28 Y30.731 R0.663
 G1 X-118.265 Y30.676
 X-118.049 Y29.867
 X-117.925 Y29.404
 G3 X-117.287 Y28.913 R0.663
 G1 X-116.949 Y28.912
 G3 X-115.974 Y29.568 R1.219
 X-116.826 Y31.425 R1.25
 G1 X-117.158 Y31.487
 G3 X-117.889 Y30.646 R0.646
 G1 X-117.875 Y30.604
 X-117.642 Y29.914
 X-117.45 Y29.342
 G3 X-116.949 Y28.912 R0.646
 G1 X-116.709 Y28.87
 G3 X-115.461 Y30.414 R1.341
 X-116.305 Y31.328 R1.041
 G1 X-116.826 Y31.425
 G3 X-117.561 Y30.633 R0.64
 G1 X-117.536 Y30.541
 X-117.37 Y29.913
 X-117.217 Y29.336
 G3 X-116.709 Y28.87 R0.64
 G1 X-116.401 Y28.816
 G3 X-115.074 Y30.226 R1.39
 X-115.924 Y31.257 R1.041
 G1 X-116.305 Y31.328
 G3 X-117.045 Y30.648 R0.628
 G1 X-117.025 Y30.445
 X-116.972 Y29.912
 X-116.919 Y29.373
 G3 X-116.401 Y28.816 R0.628
 G1 X-116.067 Y28.758
 G3 X-114.706 Y30.117 R1.409
 X-115.555 Y31.189 R1.041
 G1 X-115.924 Y31.257
 G3 X-116.663 Y30.603 R0.626
 G1 X-116.649 Y30.375
 X-116.617 Y29.869
 X-116.584 Y29.335
 G3 X-116.067 Y28.758 R0.626
 G1 X-115.707 Y28.695
 G3 X-114.34 Y30.05 R1.419
 X-115.189 Y31.12 R1.041
 G1 X-115.555 Y31.189
 G3 X-116.293 Y30.54 R0.625
 G1 X-116.28 Y30.306
 X-116.252 Y29.805
 X-116.223 Y29.276
 G3 X-115.707 Y28.695 R0.625
 G1 X-115.368 Y28.636
 G3 X-113.979 Y29.937 R1.407
 X-114.825 Y31.053 R1.041
 G1 X-115.189 Y31.12
 G3 X-115.925 Y30.488 R0.623
 G1 X-115.917 Y30.239
 X-115.901 Y29.744
 X-115.884 Y29.229
 G3 X-115.368 Y28.636 R0.623
 G1 X-115.004 Y28.572
 G3 X-113.615 Y29.875 R1.404
 X-114.462 Y30.985 R1.041
 G1 X-114.825 Y31.053
 G3 X-115.56 Y30.421 R0.622
 G1 X-115.552 Y30.171
 X-115.536 Y29.68
 X-115.519 Y29.164
 G3 X-115.004 Y28.572 R0.622
 G1 X-114.646 Y28.51
 G3 X-113.253 Y29.799 R1.398
 X-114.099 Y30.917 R1.041
 G1 X-114.462 Y30.985
 G3 X-115.195 Y30.357 R0.621
 G1 X-115.188 Y30.101
 X-115.174 Y29.617
 X-115.159 Y29.103
 G3 X-114.646 Y28.51 R0.621
 G1 X-114.278 Y28.445
 G3 X-112.89 Y29.744 R1.396
 X-113.737 Y30.85 R1.041
 G1 X-114.099 Y30.917
 G3 X-114.832 Y30.288 R0.62
 G1 X-114.823 Y30.035
 X-114.808 Y29.553
 X-114.791 Y29.035
 G3 X-114.278 Y28.445 R0.62
 G1 X-113.916 Y28.382
 G3 X-112.529 Y29.678 R1.393
 X-113.376 Y30.783 R1.041
 G1 X-113.737 Y30.85
 G3 X-114.469 Y30.222 R0.619
 G1 X-114.46 Y29.964
 X-114.445 Y29.49
 X-114.428 Y28.971
 G3 X-113.916 Y28.382 R0.619
 G1 X-113.559 Y28.32
 G3 X-112.169 Y29.602 R1.386
 X-113.016 Y30.715 R1.041
 G1 X-113.376 Y30.783
 G3 X-114.106 Y30.158 R0.617
 G1 X-114.099 Y29.9
 X-114.085 Y29.427
 X-114.07 Y28.91
 G3 X-113.559 Y28.32 R0.617
 G1 X-113.193 Y28.256
 G3 X-111.809 Y29.547 R1.385
 X-112.656 Y30.648 R1.041
 G1 X-113.016 Y30.715
 G3 X-113.745 Y30.089 R0.616
 G1 X-113.736 Y29.832
 X-113.72 Y29.363
 X-113.703 Y28.843
 G3 X-113.193 Y28.256 R0.616
 G1 X-112.833 Y28.193
 G3 X-111.449 Y29.482 R1.382
 X-112.297 Y30.581 R1.041
 G1 X-112.656 Y30.648
 G3 X-113.384 Y30.023 R0.615
 G1 X-113.375 Y29.765
 X-113.36 Y29.3
 X-113.342 Y28.779
